;FLAVOR:Marlin
;TIME:1191
;Filament used: 0.699145m
;Layer height: 0.2
;MINX:77.746
;MINY:88.254
;MINZ:0.2
;MAXX:124.98
;MAXY:131.746
;MAXZ:7
;Generated with Cura_SteamEngine 4.10.0
M140 S60
M105
M190 S60
M104 S200
M105
M109 S200
M82 ;absolute extrusion mode
; Ender 3 Custom Start G-code
G92 E0 ; Reset Extruder
G28 ; Home all axes
G1 Z2.0 F3000 ; Move Z Axis up little to prevent scratching of Heat Bed
G1 X0.1 Y20 Z0.3 F5000.0 ; Move to start position
G1 X0.1 Y200.0 Z0.3 F1500.0 E15 ; Draw the first line
G1 X0.4 Y200.0 Z0.3 F5000.0 ; Move to side a little
G1 X0.4 Y20 Z0.3 F1500.0 E30 ; Draw the second line
G92 E0 ; Reset Extruder
G1 Z2.0 F3000 ; Move Z Axis up little to prevent scratching of Heat Bed
G1 X5 Y20 Z0.3 F5000.0 ; Move over to prevent blob squish
G92 E0
G92 E0
G1 F1500 E-6.5
;LAYER_COUNT:35
;LAYER:0
M107
G0 F6000 X117.629 Y102.964 Z0.2
;TYPE:SKIRT
G1 F1500 E0
G1 F1200 X118.025 Y102.561 E0.01879
G1 X118.189 Y102.417 E0.02605
G1 X118.628 Y102.084 E0.04438
G1 X119.111 Y101.818 E0.06272
G1 X119.817 Y101.575 E0.08755
G1 X119.918 Y101.551 E0.091
G1 X120.462 Y101.463 E0.10933
G1 X121.013 Y101.454 E0.12766
G1 X121.56 Y101.525 E0.14601
G1 X121.922 Y101.618 E0.15844
G1 X122.18 Y101.698 E0.16742
G1 X122.693 Y101.899 E0.18575
G1 X123.172 Y102.172 E0.20409
G1 X123.606 Y102.512 E0.22242
G1 X123.829 Y102.731 E0.23282
G1 X123.902 Y102.809 E0.23637
G1 X124.249 Y103.238 E0.25472
G1 X124.53 Y103.712 E0.27305
G1 X124.803 Y104.438 E0.29885
G1 X124.857 Y104.643 E0.3059
G1 X124.958 Y105.185 E0.32424
G1 X124.98 Y105.735 E0.34254
G1 X124.937 Y106.192 E0.35781
G1 X124.924 Y106.276 E0.36064
G1 X124.823 Y106.715 E0.37562
G1 X124.857 Y106.843 E0.38003
G1 X124.958 Y107.385 E0.39836
G1 X124.98 Y107.935 E0.41667
G1 X124.937 Y108.392 E0.43194
G1 X124.924 Y108.476 E0.43476
G1 X124.823 Y108.915 E0.44975
G1 X124.857 Y109.043 E0.45415
G1 X124.958 Y109.585 E0.47249
G1 X124.98 Y110.135 E0.4908
G1 X124.937 Y110.592 E0.50606
G1 X124.924 Y110.676 E0.50889
G1 X124.823 Y111.115 E0.52387
G1 X124.857 Y111.243 E0.52828
G1 X124.958 Y111.785 E0.54662
G1 X124.98 Y112.335 E0.56492
G1 X124.937 Y112.792 E0.58019
G1 X124.924 Y112.876 E0.58302
G1 X124.823 Y113.315 E0.598
G1 X124.857 Y113.443 E0.60241
G1 X124.958 Y113.985 E0.62074
G1 X124.98 Y114.535 E0.63905
G1 X124.937 Y114.992 E0.65432
G1 X124.924 Y115.076 E0.65715
G1 X124.823 Y115.515 E0.67213
G1 X124.857 Y115.643 E0.67653
G1 X124.958 Y116.185 E0.69487
G1 X124.98 Y116.735 E0.71318
G1 X124.937 Y117.192 E0.72844
G1 X124.924 Y117.276 E0.73127
G1 X124.801 Y117.813 E0.7496
G1 X124.601 Y118.327 E0.76794
G1 X124.345 Y118.781 E0.78527
G1 X124.234 Y118.95 E0.792
G1 X123.899 Y119.388 E0.81034
G1 X123.504 Y119.772 E0.82866
G1 X123.186 Y120.012 E0.84191
G1 X123.115 Y120.06 E0.84476
G1 X122.638 Y120.335 E0.86308
G1 X122.125 Y120.538 E0.88143
G1 X121.568 Y120.667 E0.90044
G1 X121.361 Y120.699 E0.90741
G1 X120.811 Y120.744 E0.92576
G1 X120.261 Y120.708 E0.9441
G1 X119.765 Y120.606 E0.96094
G1 X119.682 Y120.583 E0.9638
G1 X119.163 Y120.398 E0.98213
G1 X118.677 Y120.139 E1.00045
G1 X118.225 Y119.807 E1.0191
G1 X118.065 Y119.67 E1.0261
G1 X117.674 Y119.283 E1.0444
G1 X117.343 Y118.842 E1.06274
G1 X117.105 Y118.414 E1.07903
G1 X117.067 Y118.334 E1.08198
G1 X116.867 Y117.821 E1.10029
G1 X116.744 Y117.284 E1.11861
G1 X116.699 Y116.722 E1.13736
G1 X116.698 Y116.512 E1.14435
G1 X116.735 Y115.962 E1.16268
G1 X116.837 Y115.491 E1.17871
G1 X116.744 Y115.084 E1.1926
G1 X116.699 Y114.522 E1.21135
G1 X116.698 Y114.312 E1.21833
G1 X116.735 Y113.762 E1.23667
G1 X116.837 Y113.291 E1.2527
G1 X116.744 Y112.884 E1.26658
G1 X116.699 Y112.322 E1.28534
G1 X116.698 Y112.112 E1.29232
G1 X116.735 Y111.562 E1.31065
G1 X116.837 Y111.091 E1.32668
G1 X116.744 Y110.684 E1.34057
G1 X116.699 Y110.122 E1.35932
G1 X116.698 Y109.912 E1.36631
G1 X116.735 Y109.362 E1.38464
G1 X116.837 Y108.891 E1.40067
G1 X116.744 Y108.484 E1.41455
G1 X116.699 Y107.922 E1.43331
G1 X116.698 Y107.712 E1.44029
G1 X116.735 Y107.162 E1.45863
G1 X116.837 Y106.691 E1.47465
G1 X116.744 Y106.284 E1.48854
G1 X116.699 Y105.722 E1.50729
G1 X116.698 Y105.512 E1.51428
G1 X116.735 Y104.962 E1.53261
G1 X116.852 Y104.424 E1.55092
G1 X117.015 Y103.976 E1.56678
G1 X117.049 Y103.898 E1.56961
G1 X117.305 Y103.41 E1.58794
G1 X117.629 Y102.964 E1.60627
G0 F6000 X117.971 Y103.179
G1 F1200 X118.289 Y102.861 E1.62123
G1 X118.453 Y102.717 E1.62849
G1 X118.869 Y102.404 E1.64581
G1 X119.329 Y102.159 E1.66314
G1 X119.91 Y101.964 E1.68352
G1 X120.011 Y101.94 E1.68698
G1 X120.526 Y101.859 E1.70432
G1 X121.047 Y101.857 E1.72164
G1 X121.804 Y102.001 E1.74727
G1 X122.062 Y102.081 E1.75626
G1 X122.546 Y102.273 E1.77358
G1 X122.996 Y102.536 E1.79091
G1 X123.537 Y103.005 E1.81473
G1 X123.61 Y103.083 E1.81828
G1 X123.936 Y103.489 E1.8356
G1 X124.196 Y103.941 E1.85294
G1 X124.416 Y104.54 E1.87416
G1 X124.47 Y104.745 E1.88122
G1 X124.564 Y105.258 E1.89856
G1 X124.578 Y105.779 E1.9159
G1 X124.542 Y106.131 E1.92767
G1 X124.529 Y106.215 E1.93049
G1 X124.41 Y106.723 E1.94785
G1 X124.47 Y106.945 E1.95549
G1 X124.564 Y107.458 E1.97284
G1 X124.578 Y107.979 E1.99018
G1 X124.542 Y108.331 E2.00194
G1 X124.529 Y108.415 E2.00477
G1 X124.41 Y108.923 E2.02213
G1 X124.47 Y109.145 E2.02977
G1 X124.564 Y109.658 E2.04712
G1 X124.578 Y110.179 E2.06446
G1 X124.542 Y110.531 E2.07622
G1 X124.529 Y110.615 E2.07905
G1 X124.41 Y111.123 E2.0964
G1 X124.47 Y111.345 E2.10405
G1 X124.564 Y111.858 E2.1214
G1 X124.578 Y112.379 E2.13873
G1 X124.542 Y112.731 E2.1505
G1 X124.529 Y112.815 E2.15333
G1 X124.41 Y113.323 E2.17068
G1 X124.47 Y113.545 E2.17833
G1 X124.564 Y114.058 E2.19568
G1 X124.578 Y114.579 E2.21301
G1 X124.542 Y114.931 E2.22478
G1 X124.529 Y115.015 E2.22761
G1 X124.41 Y115.523 E2.24496
G1 X124.47 Y115.745 E2.25261
G1 X124.564 Y116.258 E2.26996
G1 X124.578 Y116.779 E2.28729
G1 X124.542 Y117.131 E2.29906
G1 X124.529 Y117.215 E2.30189
G1 X124.41 Y117.722 E2.31921
G1 X124.215 Y118.206 E2.33657
G1 X124.011 Y118.562 E2.35021
G1 X123.9 Y118.731 E2.35694
G1 X123.581 Y119.143 E2.37427
G1 X123.203 Y119.502 E2.39161
G1 X122.962 Y119.681 E2.40159
G1 X122.891 Y119.729 E2.40444
G1 X122.438 Y119.987 E2.42178
G1 X121.951 Y120.172 E2.43911
G1 X121.506 Y120.272 E2.45428
G1 X121.299 Y120.304 E2.46124
G1 X120.78 Y120.344 E2.47856
G1 X120.26 Y120.304 E2.4959
G1 X119.872 Y120.221 E2.5091
G1 X119.789 Y120.198 E2.51197
G1 X119.299 Y120.02 E2.52931
G1 X118.842 Y119.77 E2.54663
G1 X118.486 Y119.504 E2.56141
G1 X118.326 Y119.367 E2.56842
G1 X117.957 Y118.998 E2.58577
G1 X117.649 Y118.578 E2.6031
G1 X117.466 Y118.243 E2.61579
G1 X117.428 Y118.163 E2.61874
G1 X117.241 Y117.676 E2.63609
G1 X117.131 Y117.167 E2.65341
G1 X117.099 Y116.72 E2.66832
G1 X117.098 Y116.51 E2.6753
G1 X117.136 Y115.99 E2.69264
G1 X117.249 Y115.496 E2.7095
G1 X117.241 Y115.476 E2.71021
G1 X117.131 Y114.967 E2.72753
G1 X117.099 Y114.52 E2.74244
G1 X117.098 Y114.31 E2.74942
G1 X117.136 Y113.79 E2.76676
G1 X117.249 Y113.296 E2.78362
G1 X117.241 Y113.276 E2.78434
G1 X117.131 Y112.767 E2.80166
G1 X117.099 Y112.32 E2.81656
G1 X117.098 Y112.11 E2.82355
G1 X117.136 Y111.59 E2.84089
G1 X117.249 Y111.096 E2.85774
G1 X117.241 Y111.076 E2.85846
G1 X117.131 Y110.567 E2.87578
G1 X117.099 Y110.12 E2.89068
G1 X117.098 Y109.91 E2.89767
G1 X117.136 Y109.39 E2.91501
G1 X117.249 Y108.896 E2.93187
G1 X117.241 Y108.876 E2.93258
G1 X117.131 Y108.367 E2.9499
G1 X117.099 Y107.92 E2.96481
G1 X117.098 Y107.71 E2.97179
G1 X117.136 Y107.19 E2.98913
G1 X117.249 Y106.696 E3.00599
G1 X117.241 Y106.676 E3.0067
G1 X117.131 Y106.167 E3.02402
G1 X117.099 Y105.72 E3.03893
G1 X117.098 Y105.51 E3.04591
G1 X117.136 Y104.99 E3.06326
G1 X117.252 Y104.482 E3.08059
G1 X117.381 Y104.135 E3.0929
G1 X117.415 Y104.057 E3.09573
G1 X117.659 Y103.597 E3.11305
G1 X117.971 Y103.179 E3.1304
G0 F6000 X118.312 Y103.398
G1 F1200 X118.553 Y103.162 E3.14162
G1 X118.717 Y103.018 E3.14888
G1 X119.11 Y102.726 E3.16516
G1 X119.545 Y102.502 E3.18143
G1 X120.002 Y102.353 E3.19742
G1 X120.103 Y102.329 E3.20087
G1 X120.587 Y102.255 E3.21716
G1 X121.077 Y102.261 E3.23346
G1 X121.685 Y102.383 E3.25408
G1 X121.943 Y102.463 E3.26307
G1 X122.398 Y102.645 E3.27937
G1 X122.816 Y102.899 E3.29563
G1 X123.245 Y103.278 E3.31467
G1 X123.318 Y103.356 E3.31823
G1 X123.623 Y103.74 E3.33454
G1 X123.86 Y104.167 E3.35078
G1 X124.029 Y104.642 E3.36755
G1 X124.083 Y104.847 E3.3746
G1 X124.169 Y105.329 E3.39088
G1 X124.175 Y105.818 E3.40715
G1 X124.147 Y106.07 E3.41558
G1 X124.134 Y106.154 E3.41841
G1 X124.02 Y106.63 E3.43469
G1 X123.984 Y106.715 E3.43776
G1 X124.083 Y107.047 E3.44928
G1 X124.169 Y107.529 E3.46557
G1 X124.175 Y108.018 E3.48183
G1 X124.147 Y108.27 E3.49027
G1 X124.134 Y108.354 E3.49309
G1 X124.02 Y108.83 E3.50937
G1 X123.984 Y108.915 E3.51244
G1 X124.083 Y109.247 E3.52397
G1 X124.169 Y109.729 E3.54025
G1 X124.175 Y110.218 E3.55652
G1 X124.147 Y110.47 E3.56495
G1 X124.134 Y110.554 E3.56778
G1 X124.02 Y111.03 E3.58406
G1 X123.984 Y111.115 E3.58713
G1 X124.083 Y111.447 E3.59865
G1 X124.169 Y111.929 E3.61493
G1 X124.175 Y112.418 E3.6312
G1 X124.147 Y112.67 E3.63963
G1 X124.134 Y112.754 E3.64246
G1 X124.02 Y113.23 E3.65874
G1 X123.984 Y113.315 E3.66181
G1 X124.083 Y113.647 E3.67333
G1 X124.169 Y114.129 E3.68962
G1 X124.175 Y114.618 E3.70588
G1 X124.147 Y114.87 E3.71431
G1 X124.134 Y114.954 E3.71714
G1 X124.02 Y115.43 E3.73342
G1 X123.984 Y115.515 E3.73649
G1 X124.083 Y115.847 E3.74801
G1 X124.169 Y116.329 E3.7643
G1 X124.175 Y116.818 E3.78056
G1 X124.147 Y117.07 E3.789
G1 X124.134 Y117.154 E3.79182
G1 X124.02 Y117.63 E3.8081
G1 X123.83 Y118.081 E3.82438
G1 X123.677 Y118.342 E3.83444
G1 X123.566 Y118.511 E3.84117
G1 X123.264 Y118.897 E3.85747
G1 X122.738 Y119.349 E3.88054
G1 X122.667 Y119.397 E3.88339
G1 X122.241 Y119.637 E3.89965
G1 X121.781 Y119.805 E3.91594
G1 X121.445 Y119.877 E3.92737
G1 X121.238 Y119.909 E3.93433
G1 X120.75 Y119.944 E3.95061
G1 X120.263 Y119.899 E3.96687
G1 X119.979 Y119.835 E3.97656
G1 X119.896 Y119.812 E3.97942
G1 X119.436 Y119.643 E3.99572
G1 X119.01 Y119.402 E4.012
G1 X118.746 Y119.2 E4.02305
G1 X118.586 Y119.063 E4.03006
G1 X118.241 Y118.715 E4.04636
G1 X117.958 Y118.316 E4.06263
G1 X117.827 Y118.071 E4.07187
G1 X117.789 Y117.991 E4.07482
G1 X117.616 Y117.533 E4.0911
G1 X117.519 Y117.053 E4.10739
G1 X117.499 Y116.718 E4.11855
G1 X117.498 Y116.508 E4.12553
G1 X117.536 Y116.02 E4.14181
G1 X117.652 Y115.545 E4.15808
G1 X117.674 Y115.487 E4.16014
G1 X117.616 Y115.333 E4.16561
G1 X117.519 Y114.853 E4.1819
G1 X117.499 Y114.518 E4.19306
G1 X117.498 Y114.308 E4.20005
G1 X117.536 Y113.82 E4.21633
G1 X117.652 Y113.345 E4.23259
G1 X117.674 Y113.287 E4.23465
G1 X117.616 Y113.133 E4.24013
G1 X117.519 Y112.653 E4.25641
G1 X117.499 Y112.318 E4.26758
G1 X117.498 Y112.108 E4.27456
G1 X117.536 Y111.62 E4.29084
G1 X117.652 Y111.145 E4.3071
G1 X117.674 Y111.087 E4.30917
G1 X117.616 Y110.933 E4.31464
G1 X117.519 Y110.453 E4.33093
G1 X117.499 Y110.118 E4.34209
G1 X117.498 Y109.908 E4.34907
G1 X117.536 Y109.42 E4.36535
G1 X117.652 Y108.945 E4.38162
G1 X117.674 Y108.887 E4.38368
G1 X117.616 Y108.733 E4.38915
G1 X117.519 Y108.253 E4.40544
G1 X117.499 Y107.918 E4.4166
G1 X117.498 Y107.708 E4.42359
G1 X117.536 Y107.22 E4.43987
G1 X117.652 Y106.745 E4.45613
G1 X117.674 Y106.687 E4.45819
G1 X117.616 Y106.533 E4.46367
G1 X117.519 Y106.053 E4.47995
G1 X117.499 Y105.718 E4.49112
G1 X117.498 Y105.508 E4.4981
G1 X117.536 Y105.02 E4.51438
G1 X117.652 Y104.545 E4.53064
G1 X117.748 Y104.295 E4.53955
G1 X117.782 Y104.217 E4.54238
G1 X118.013 Y103.786 E4.55865
G1 X118.312 Y103.398 E4.57494
G0 F6000 X118.651 Y103.621
G1 F1200 X118.981 Y103.318 E4.58984
G1 X119.348 Y103.049 E4.60497
G1 X119.757 Y102.848 E4.62013
G1 X120.095 Y102.742 E4.63191
G1 X120.196 Y102.718 E4.63536
G1 X120.647 Y102.652 E4.65052
G1 X121.102 Y102.666 E4.66567
G1 X121.567 Y102.765 E4.68148
G1 X121.825 Y102.845 E4.69046
G1 X122.247 Y103.017 E4.70562
G1 X122.632 Y103.261 E4.72078
G1 X122.953 Y103.551 E4.73517
G1 X123.026 Y103.629 E4.73872
G1 X123.307 Y103.988 E4.75388
G1 X123.521 Y104.39 E4.76903
G1 X123.642 Y104.744 E4.78147
G1 X123.696 Y104.949 E4.78852
G1 X123.773 Y105.398 E4.80368
G1 X123.751 Y106.009 E4.82401
G1 X123.738 Y106.093 E4.82684
G1 X123.63 Y106.535 E4.84197
G1 X123.555 Y106.689 E4.84767
G1 X123.642 Y106.944 E4.85663
G1 X123.696 Y107.149 E4.86368
G1 X123.773 Y107.598 E4.87883
G1 X123.751 Y108.209 E4.89917
G1 X123.738 Y108.293 E4.902
G1 X123.63 Y108.735 E4.91713
G1 X123.555 Y108.889 E4.92283
G1 X123.642 Y109.144 E4.93179
G1 X123.696 Y109.349 E4.93884
G1 X123.773 Y109.798 E4.95399
G1 X123.751 Y110.409 E4.97433
G1 X123.738 Y110.493 E4.97715
G1 X123.63 Y110.935 E4.99229
G1 X123.555 Y111.089 E4.99798
G1 X123.642 Y111.344 E5.00694
G1 X123.696 Y111.549 E5.014
G1 X123.773 Y111.998 E5.02915
G1 X123.751 Y112.609 E5.04948
G1 X123.738 Y112.693 E5.05231
G1 X123.63 Y113.135 E5.06744
G1 X123.555 Y113.289 E5.07314
G1 X123.642 Y113.544 E5.0821
G1 X123.696 Y113.749 E5.08915
G1 X123.773 Y114.198 E5.1043
G1 X123.751 Y114.809 E5.12464
G1 X123.738 Y114.893 E5.12747
G1 X123.63 Y115.335 E5.1426
G1 X123.555 Y115.489 E5.1483
G1 X123.642 Y115.744 E5.15726
G1 X123.696 Y115.949 E5.16431
G1 X123.773 Y116.398 E5.17946
G1 X123.751 Y117.009 E5.1998
G1 X123.738 Y117.093 E5.20262
G1 X123.63 Y117.535 E5.21776
G1 X123.342 Y118.122 E5.2395
G1 X123.231 Y118.291 E5.24623
G1 X122.949 Y118.649 E5.26139
G1 X122.514 Y119.018 E5.28036
G1 X122.443 Y119.066 E5.28321
G1 X122.045 Y119.287 E5.29835
G1 X121.614 Y119.435 E5.31351
G1 X121.177 Y119.513 E5.32827
G1 X120.723 Y119.543 E5.34341
G1 X120.086 Y119.45 E5.36482
G1 X120.003 Y119.427 E5.36768
G1 X119.576 Y119.267 E5.38285
G1 X119.006 Y118.896 E5.40547
G1 X118.846 Y118.759 E5.41247
G1 X118.527 Y118.433 E5.42764
G1 X118.188 Y117.9 E5.44865
G1 X118.15 Y117.82 E5.4516
G1 X117.992 Y117.392 E5.46677
G1 X117.91 Y116.944 E5.48192
G1 X117.898 Y116.506 E5.4965
G1 X117.936 Y116.052 E5.51165
G1 X118.103 Y115.494 E5.53102
G1 X117.992 Y115.192 E5.54172
G1 X117.91 Y114.744 E5.55687
G1 X117.898 Y114.306 E5.57144
G1 X117.936 Y113.852 E5.5866
G1 X118.103 Y113.294 E5.60597
G1 X117.992 Y112.992 E5.61667
G1 X117.91 Y112.544 E5.63182
G1 X117.898 Y112.106 E5.64639
G1 X117.936 Y111.652 E5.66154
G1 X118.103 Y111.094 E5.68092
G1 X117.992 Y110.792 E5.69162
G1 X117.91 Y110.344 E5.70677
G1 X117.898 Y109.906 E5.72134
G1 X117.936 Y109.452 E5.73649
G1 X118.103 Y108.894 E5.75587
G1 X117.992 Y108.592 E5.76657
G1 X117.91 Y108.144 E5.78172
G1 X117.898 Y107.706 E5.79629
G1 X117.936 Y107.252 E5.81144
G1 X118.103 Y106.694 E5.83081
G1 X117.992 Y106.392 E5.84152
G1 X117.91 Y105.944 E5.85666
G1 X117.898 Y105.506 E5.87124
G1 X117.936 Y105.052 E5.88639
G1 X118.115 Y104.455 E5.90712
G1 X118.149 Y104.377 E5.90995
G1 X118.367 Y103.977 E5.9251
G1 X118.651 Y103.621 E5.94025
G0 F6000 X118.719 Y104.17
G1 F1200 X119.08 Y103.763 E5.95834
G1 X119.244 Y103.619 E5.9656
G1 X119.584 Y103.374 E5.97954
G1 X119.964 Y103.197 E5.99348
G1 X120.288 Y103.108 E6.00466
G1 X120.703 Y103.05 E6.0186
G1 X121.122 Y103.072 E6.03255
G1 X121.449 Y103.147 E6.04371
G1 X121.707 Y103.227 E6.05269
G1 X122.093 Y103.388 E6.0666
G1 X122.442 Y103.62 E6.08054
G1 X122.661 Y103.825 E6.09052
G1 X122.734 Y103.903 E6.09407
G1 X122.99 Y104.235 E6.10802
G1 X123.179 Y104.609 E6.12195
G1 X123.309 Y105.051 E6.13728
G1 X123.377 Y105.464 E6.1512
G1 X123.356 Y105.947 E6.16728
G1 X123.343 Y106.031 E6.17011
G1 X123.24 Y106.438 E6.18407
G1 X123.117 Y106.685 E6.19325
G1 X123.255 Y107.046 E6.2061
G1 X123.309 Y107.251 E6.21315
G1 X123.377 Y107.664 E6.22707
G1 X123.356 Y108.147 E6.24315
G1 X123.343 Y108.231 E6.24598
G1 X123.24 Y108.638 E6.25994
G1 X123.117 Y108.885 E6.26912
G1 X123.255 Y109.246 E6.28198
G1 X123.309 Y109.451 E6.28903
G1 X123.377 Y109.864 E6.30295
G1 X123.356 Y110.347 E6.31903
G1 X123.343 Y110.431 E6.32186
G1 X123.24 Y110.838 E6.33582
G1 X123.117 Y111.085 E6.345
G1 X123.255 Y111.446 E6.35785
G1 X123.309 Y111.651 E6.3649
G1 X123.377 Y112.064 E6.37882
G1 X123.356 Y112.547 E6.3949
G1 X123.343 Y112.631 E6.39773
G1 X123.24 Y113.038 E6.41169
G1 X123.117 Y113.285 E6.42087
G1 X123.255 Y113.646 E6.43373
G1 X123.309 Y113.851 E6.44078
G1 X123.377 Y114.264 E6.4547
