;FLAVOR:Marlin
;TIME:3566
;Filament used: 2.08963m
;Layer height: 0.2
;MINX:73.701
;MINY:73.701
;MINZ:0.2
;MAXX:146.299
;MAXY:146.299
;MAXZ:20
;Generated with Cura_SteamEngine 4.10.0
M140 S60
M105
M190 S60
M104 S200
M105
M109 S200
M82 ;absolute extrusion mode
; Ender 3 Custom Start G-code
G92 E0 ; Reset Extruder
G28 ; Home all axes
G1 Z2.0 F3000 ; Move Z Axis up little to prevent scratching of Heat Bed
G1 X0.1 Y20 Z0.3 F5000.0 ; Move to start position
G1 X0.1 Y200.0 Z0.3 F1500.0 E15 ; Draw the first line
G1 X0.4 Y200.0 Z0.3 F5000.0 ; Move to side a little
G1 X0.4 Y20 Z0.3 F1500.0 E30 ; Draw the second line
G92 E0 ; Reset Extruder
G1 Z2.0 F3000 ; Move Z Axis up little to prevent scratching of Heat Bed
G1 X5 Y20 Z0.3 F5000.0 ; Move over to prevent blob squish
G92 E0
G92 E0
G1 F1500 E-6.5
;LAYER_COUNT:100
;LAYER:0
M107
G0 F6000 X84.258 Y84.407 Z0.2
;TYPE:SKIRT
G1 F1500 E0
G1 F1200 X84.401 Y84.265 E0.0067
G1 X85.644 Y83.086 E0.06368
G1 X85.792 Y82.953 E0.0703
G1 X87.077 Y81.856 E0.1265
G1 X87.235 Y81.728 E0.13326
G1 X88.623 Y80.666 E0.19139
G1 X88.776 Y80.555 E0.19768
G1 X90.142 Y79.614 E0.25285
G1 X90.314 Y79.502 E0.25967
G1 X91.771 Y78.61 E0.31649
G1 X91.943 Y78.511 E0.32309
G1 X93.432 Y77.703 E0.37944
G1 X93.612 Y77.611 E0.38616
G1 X95.185 Y76.863 E0.4441
G1 X95.364 Y76.784 E0.4506
G1 X96.898 Y76.149 E0.50582
G1 X97.084 Y76.078 E0.51244
G1 X98.698 Y75.507 E0.56939
G1 X98.887 Y75.445 E0.576
G1 X100.553 Y74.952 E0.63379
G1 X100.747 Y74.9 E0.64047
G1 X102.356 Y74.515 E0.6955
G1 X102.548 Y74.475 E0.70202
G1 X104.232 Y74.163 E0.75898
G1 X104.427 Y74.132 E0.76555
G1 X106.11 Y73.91 E0.82201
G1 X106.315 Y73.888 E0.82887
G1 X108.038 Y73.755 E0.88635
G1 X108.23 Y73.745 E0.89274
G1 X109.903 Y73.701 E0.9484
G1 X110.106 Y73.701 E0.95516
G1 X111.845 Y73.748 E1.01302
G1 X112.045 Y73.759 E1.01968
G1 X113.73 Y73.894 E1.0759
G1 X113.923 Y73.915 E1.08236
G1 X115.578 Y74.133 E1.13788
G1 X115.773 Y74.163 E1.14444
G1 X117.456 Y74.474 E1.20137
G1 X117.657 Y74.517 E1.2082
G1 X119.334 Y74.922 E1.26558
G1 X119.527 Y74.974 E1.27223
G1 X121.155 Y75.459 E1.32873
G1 X121.337 Y75.518 E1.33509
G1 X122.921 Y76.078 E1.39097
G1 X123.114 Y76.153 E1.39786
G1 X124.71 Y76.817 E1.45535
G1 X124.886 Y76.895 E1.46176
G1 X126.397 Y77.616 E1.51744
G1 X126.575 Y77.707 E1.52409
G1 X128.07 Y78.519 E1.58068
G1 X128.244 Y78.62 E1.58737
G1 X129.715 Y79.523 E1.64478
G1 X129.883 Y79.632 E1.65144
G1 X131.284 Y80.597 E1.70802
G1 X131.441 Y80.711 E1.71447
G1 X132.773 Y81.733 E1.77031
G1 X132.93 Y81.86 E1.77703
G1 X134.214 Y82.958 E1.83322
G1 X134.359 Y83.088 E1.8397
G1 X135.593 Y84.258 E1.89626
G1 X135.736 Y84.402 E1.90301
G1 X136.914 Y85.645 E1.95996
G1 X137.045 Y85.79 E1.96646
G1 X138.143 Y87.075 E2.02268
G1 X138.268 Y87.23 E2.0293
G1 X139.307 Y88.583 E2.08604
G1 X139.425 Y88.745 E2.09271
G1 X140.385 Y90.142 E2.14909
G1 X140.492 Y90.307 E2.15563
G1 X141.388 Y91.768 E2.21263
G1 X141.489 Y91.942 E2.21932
G1 X142.296 Y93.429 E2.27559
G1 X142.386 Y93.606 E2.2822
G1 X143.12 Y95.145 E2.33891
G1 X143.201 Y95.327 E2.34553
G1 X143.851 Y96.897 E2.40205
G1 X143.922 Y97.083 E2.40867
G1 X144.493 Y98.696 E2.46558
G1 X144.554 Y98.883 E2.47213
G1 X145.038 Y100.514 E2.52871
G1 X145.09 Y100.71 E2.53546
G1 X145.484 Y102.355 E2.59172
G1 X145.525 Y102.547 E2.59825
G1 X145.837 Y104.23 E2.65518
G1 X145.869 Y104.427 E2.66182
G1 X146.09 Y106.106 E2.71814
G1 X146.11 Y106.305 E2.72479
G1 X146.243 Y107.999 E2.78131
G1 X146.254 Y108.196 E2.78787
G1 X146.299 Y109.898 E2.8445
G1 X146.299 Y110.098 E2.85115
G1 X146.254 Y111.808 E2.90805
G1 X146.243 Y112.005 E2.91461
G1 X146.111 Y113.69 E2.97082
G1 X146.09 Y113.89 E2.97751
G1 X145.867 Y115.579 E3.03418
G1 X145.837 Y115.773 E3.04071
G1 X145.526 Y117.456 E3.09763
G1 X145.483 Y117.654 E3.10437
G1 X145.087 Y119.299 E3.16065
G1 X145.036 Y119.492 E3.16728
G1 X144.552 Y121.122 E3.22384
G1 X144.492 Y121.306 E3.23028
G1 X143.925 Y122.91 E3.28686
G1 X143.853 Y123.098 E3.29356
G1 X143.202 Y124.67 E3.35015
G1 X143.121 Y124.852 E3.35677
G1 X142.384 Y126.397 E3.41371
G1 X142.294 Y126.574 E3.42031
G1 X141.487 Y128.061 E3.47658
G1 X141.387 Y128.233 E3.4832
G1 X140.498 Y129.684 E3.5398
G1 X140.39 Y129.852 E3.54644
G1 X139.427 Y131.253 E3.60298
G1 X139.311 Y131.412 E3.60953
G1 X138.269 Y132.771 E3.66649
G1 X138.141 Y132.929 E3.67325
G1 X137.042 Y134.214 E3.72949
G1 X136.912 Y134.359 E3.73597
G1 X135.742 Y135.593 E3.79253
G1 X135.599 Y135.735 E3.79923
G1 X134.358 Y136.912 E3.85612
G1 X134.211 Y137.045 E3.86271
G1 X132.924 Y138.144 E3.919
G1 X132.765 Y138.272 E3.92579
G1 X131.377 Y139.334 E3.98392
G1 X131.224 Y139.445 E3.9902
G1 X129.858 Y140.386 E4.04537
G1 X129.686 Y140.498 E4.0522
G1 X128.231 Y141.389 E4.10895
G1 X128.059 Y141.488 E4.11555
G1 X126.568 Y142.297 E4.17197
G1 X126.388 Y142.389 E4.17869
G1 X124.815 Y143.137 E4.23662
G1 X124.636 Y143.216 E4.24313
G1 X123.102 Y143.851 E4.29835
G1 X122.917 Y143.922 E4.30494
G1 X121.304 Y144.493 E4.36185
G1 X121.114 Y144.555 E4.3685
G1 X119.447 Y145.048 E4.42632
G1 X119.253 Y145.1 E4.433
G1 X117.644 Y145.485 E4.48802
G1 X117.452 Y145.525 E4.49455
G1 X115.768 Y145.837 E4.55151
G1 X115.573 Y145.868 E4.55808
G1 X113.89 Y146.09 E4.61454
G1 X113.685 Y146.112 E4.6214
G1 X111.962 Y146.245 E4.67887
G1 X111.77 Y146.255 E4.68527
G1 X110.097 Y146.299 E4.74093
G1 X109.894 Y146.299 E4.74768
G1 X108.155 Y146.252 E4.80554
G1 X107.955 Y146.241 E4.81221
G1 X106.267 Y146.106 E4.86853
G1 X106.073 Y146.085 E4.87502
G1 X104.421 Y145.867 E4.93044
G1 X104.227 Y145.837 E4.93697
G1 X102.544 Y145.526 E4.99389
G1 X102.343 Y145.483 E5.00073
G1 X100.666 Y145.078 E5.05811
G1 X100.473 Y145.026 E5.06476
G1 X98.845 Y144.541 E5.12126
G1 X98.663 Y144.482 E5.12762
G1 X97.079 Y143.922 E5.1835
G1 X96.886 Y143.847 E5.19039
G1 X95.29 Y143.183 E5.24788
G1 X95.114 Y143.105 E5.25429
G1 X93.603 Y142.384 E5.30997
G1 X93.425 Y142.293 E5.31662
G1 X91.93 Y141.481 E5.3732
G1 X91.755 Y141.38 E5.37992
G1 X90.283 Y140.476 E5.43738
G1 X90.117 Y140.368 E5.44397
G1 X88.717 Y139.404 E5.5005
G1 X88.559 Y139.289 E5.507
G1 X87.227 Y138.267 E5.56284
G1 X87.07 Y138.14 E5.56956
G1 X85.784 Y137.04 E5.62584
G1 X85.639 Y136.909 E5.63234
G1 X84.4 Y135.734 E5.68914
G1 X84.258 Y135.592 E5.69582
G1 X83.086 Y134.356 E5.75247
G1 X82.953 Y134.208 E5.75909
G1 X81.856 Y132.923 E5.81528
G1 X81.731 Y132.769 E5.82188
G1 X80.688 Y131.409 E5.87888
G1 X80.573 Y131.251 E5.88538
G1 X79.607 Y129.848 E5.94204
G1 X79.496 Y129.676 E5.94885
G1 X78.61 Y128.228 E6.00531
G1 X78.511 Y128.057 E6.01188
G1 X77.703 Y126.568 E6.06823
G1 X77.613 Y126.391 E6.07483
G1 X76.876 Y124.845 E6.13179
G1 X76.795 Y124.663 E6.13842
G1 X76.145 Y123.092 E6.19497
G1 X76.073 Y122.905 E6.20163
G1 X75.506 Y121.301 E6.25822
G1 X75.446 Y121.115 E6.26472
G1 X74.962 Y119.483 E6.32133
G1 X74.91 Y119.289 E6.32801
G1 X74.516 Y117.646 E6.38421
G1 X74.475 Y117.452 E6.3908
G1 X74.163 Y115.768 E6.44777
G1 X74.131 Y115.571 E6.45441
G1 X73.909 Y113.883 E6.51103
G1 X73.889 Y113.685 E6.51765
G1 X73.757 Y112.001 E6.57383
G1 X73.746 Y111.804 E6.5804
G1 X73.701 Y110.102 E6.63702
G1 X73.701 Y109.902 E6.64368
G1 X73.746 Y108.192 E6.70057
G1 X73.757 Y107.995 E6.70713
G1 X73.889 Y106.31 E6.76335
G1 X73.91 Y106.11 E6.77004
G1 X74.133 Y104.421 E6.8267
G1 X74.163 Y104.227 E6.83323
G1 X74.474 Y102.544 E6.89015
G1 X74.517 Y102.346 E6.89689
G1 X74.913 Y100.701 E6.95317
G1 X74.964 Y100.508 E6.95981
G1 X75.448 Y98.878 E7.01636
G1 X75.508 Y98.694 E7.0228
G1 X76.075 Y97.09 E7.07938
G1 X76.147 Y96.902 E7.08608
G1 X76.798 Y95.33 E7.14267
G1 X76.879 Y95.148 E7.1493
G1 X77.616 Y93.603 E7.20623
G1 X77.706 Y93.426 E7.21284
G1 X78.513 Y91.939 E7.26911
G1 X78.613 Y91.767 E7.27572
G1 X79.502 Y90.316 E7.33232
G1 X79.61 Y90.148 E7.33897
G1 X80.573 Y88.747 E7.39551
G1 X80.69 Y88.587 E7.4021
G1 X81.733 Y87.227 E7.45911
G1 X81.86 Y87.07 E7.46582
G1 X82.958 Y85.786 E7.52201
G1 X83.088 Y85.641 E7.52849
G1 X84.258 Y84.407 E7.58505
G0 F6000 X84.549 Y84.683
G1 F1200 X84.676 Y84.555 E7.59105
G1 X85.919 Y83.376 E7.64803
G1 X86.051 Y83.257 E7.65394
G1 X87.336 Y82.16 E7.71013
G1 X87.478 Y82.046 E7.71619
G1 X88.866 Y80.984 E7.77432
G1 X89.003 Y80.884 E7.77996
G1 X90.369 Y79.943 E7.83513
G1 X90.523 Y79.843 E7.84124
G1 X91.98 Y78.951 E7.89806
G1 X92.133 Y78.863 E7.90393
G1 X93.622 Y78.055 E7.96028
G1 X93.784 Y77.972 E7.96633
G1 X95.357 Y77.224 E8.02426
G1 X95.517 Y77.154 E8.03007
G1 X97.051 Y76.519 E8.08529
G1 X97.217 Y76.455 E8.09121
G1 X98.831 Y75.884 E8.14815
G1 X99 Y75.829 E8.15406
G1 X100.666 Y75.336 E8.21185
G1 X100.84 Y75.289 E8.21784
G1 X102.449 Y74.904 E8.27287
G1 X102.621 Y74.868 E8.27871
G1 X104.305 Y74.556 E8.33568
G1 X104.479 Y74.528 E8.34154
G1 X106.162 Y74.306 E8.398
G1 X106.345 Y74.287 E8.40412
G1 X108.068 Y74.154 E8.4616
G1 X108.241 Y74.145 E8.46736
G1 X109.914 Y74.101 E8.52302
G1 X110.095 Y74.101 E8.52904
G1 X111.834 Y74.148 E8.5869
G1 X112.014 Y74.158 E8.5929
G1 X113.699 Y74.293 E8.64912
G1 X113.871 Y74.311 E8.65487
G1 X115.526 Y74.529 E8.71039
G1 X115.7 Y74.557 E8.71626
G1 X117.383 Y74.868 E8.77318
G1 X117.563 Y74.906 E8.7793
G1 X119.24 Y75.311 E8.83668
G1 X119.413 Y75.358 E8.84264
G1 X121.041 Y75.843 E8.89914
G1 X121.203 Y75.895 E8.9048
G1 X122.787 Y76.455 E8.96068
G1 X122.96 Y76.522 E8.96685
G1 X124.556 Y77.186 E9.02434
G1 X124.714 Y77.256 E9.03009
G1 X126.225 Y77.977 E9.08578
G1 X126.384 Y78.058 E9.09171
G1 X127.879 Y78.87 E9.1483
G1 X128.035 Y78.96 E9.15429
G1 X129.506 Y79.863 E9.2117
G1 X129.656 Y79.961 E9.21765
G1 X131.057 Y80.926 E9.27424
G1 X131.198 Y81.029 E9.28004
G1 X132.53 Y82.051 E9.33588
G1 X132.67 Y82.164 E9.34187
G1 X133.954 Y83.262 E9.39806
G1 X134.083 Y83.379 E9.40385
G1 X135.317 Y84.549 E9.46041
G1 X135.446 Y84.677 E9.46646
G1 X136.624 Y85.92 E9.52341
G1 X136.741 Y86.05 E9.52923
G1 X137.839 Y87.335 E9.58545
G1 X137.951 Y87.473 E9.59136
G1 X138.99 Y88.826 E9.6481
G1 X139.095 Y88.971 E9.65405
G1 X140.055 Y90.368 E9.71043
G1 X140.151 Y90.516 E9.7163
G1 X141.047 Y91.977 E9.7733
G1 X141.137 Y92.133 E9.77929
G1 X141.944 Y93.62 E9.83556
G1 X142.025 Y93.778 E9.84147
G1 X142.759 Y95.317 E9.89818
G1 X142.831 Y95.48 E9.90411
G1 X143.481 Y97.05 E9.96062
G1 X143.545 Y97.216 E9.96654
G1 X144.116 Y98.829 E10.02345
G1 X144.171 Y98.997 E10.02933
G1 X144.655 Y100.628 E10.08592
G1 X144.701 Y100.803 E10.09193
G1 X145.095 Y102.448 E10.14819
G1 X145.132 Y102.62 E10.15405
G1 X145.444 Y104.303 E10.21098
G1 X145.472 Y104.479 E10.2169
G1 X145.693 Y106.158 E10.27323
G1 X145.712 Y106.336 E10.27918
G1 X145.845 Y108.03 E10.3357
G1 X145.854 Y108.206 E10.34156
G1 X145.899 Y109.908 E10.39819
G1 X145.899 Y110.087 E10.40414
G1 X145.854 Y111.797 E10.46104
G1 X145.845 Y111.974 E10.46693
G1 X145.713 Y113.659 E10.52315
G1 X145.694 Y113.838 E10.52913
G1 X145.471 Y115.527 E10.5858
G1 X145.443 Y115.7 E10.59163
G1 X145.132 Y117.383 E10.64855
G1 X145.095 Y117.561 E10.6546
G1 X144.699 Y119.206 E10.71087
G1 X144.652 Y119.378 E10.7168
G1 X144.168 Y121.008 E10.77336
G1 X144.115 Y121.173 E10.77912
G1 X143.548 Y122.777 E10.83571
G1 X143.483 Y122.945 E10.8417
G1 X142.832 Y124.517 E10.89829
G1 X142.76 Y124.68 E10.90422
G1 X142.023 Y126.225 E10.96115
G1 X141.942 Y126.383 E10.96706
G1 X141.135 Y127.87 E11.02333
G1 X141.046 Y128.024 E11.02924
G1 X140.157 Y129.475 E11.08584
G1 X140.06 Y129.625 E11.09178
G1 X139.097 Y131.026 E11.14833
G1 X138.993 Y131.169 E11.15421
G1 X137.951 Y132.528 E11.21117
G1 X137.837 Y132.669 E11.2172
G1 X136.738 Y133.954 E11.27343
G1 X136.621 Y134.083 E11.27923
G1 X135.451 Y135.317 E11.33579
G1 X135.324 Y135.445 E11.34178
G1 X134.083 Y136.622 E11.39867
G1 X133.951 Y136.741 E11.40458
G1 X132.664 Y137.84 E11.46087
G1 X132.522 Y137.954 E11.46693
G1 X131.134 Y139.016 E11.52506
G1 X130.997 Y139.116 E11.5307
G1 X129.631 Y140.057 E11.58587
G1 X129.478 Y140.157 E11.59195
G1 X128.023 Y141.048 E11.64869
G1 X127.868 Y141.136 E11.65462
G1 X126.377 Y141.945 E11.71104
G1 X126.216 Y142.028 E11.71707
G1 X124.643 Y142.776 E11.775
G1 X124.483 Y142.846 E11.78081
G1 X122.949 Y143.481 E11.83603
G1 X122.784 Y143.545 E11.84191
G1 X121.171 Y144.116 E11.89882
G1 X121 Y144.171 E11.9048
G1 X119.333 Y144.664 E11.96262
G1 X119.16 Y144.711 E11.96858
G1 X117.551 Y145.096 E12.0236
G1 X117.379 Y145.132 E12.02945
G1 X115.695 Y145.444 E12.08641
G1 X115.521 Y145.472 E12.09227
G1 X113.838 Y145.694 E12.14874
G1 X113.655 Y145.713 E12.15486
G1 X111.932 Y145.846 E12.21233
G1 X111.759 Y145.855 E12.2181
G1 X110.086 Y145.899 E12.27376
G1 X109.905 Y145.899 E12.27978
G1 X108.166 Y145.852 E12.33764
G1 X107.987 Y145.842 E12.3436
G1 X106.299 Y145.707 E12.39992
G1 X106.125 Y145.689 E12.40574
G1 X104.473 Y145.471 E12.46116
G1 X104.3 Y145.443 E12.46699
G1 X102.617 Y145.132 E12.52392
G1 X102.437 Y145.094 E12.53004
G1 X100.76 Y144.689 E12.58742
G1 X100.587 Y144.642 E12.59338
G1 X98.959 Y144.157 E12.64988
G1 X98.797 Y144.105 E12.65554
G1 X97.213 Y143.545 E12.71142
G1 X97.04 Y143.478 E12.71759
G1 X95.444 Y142.814 E12.77508
G1 X95.286 Y142.744 E12.78083
G1 X93.775 Y142.023 E12.83651
G1 X93.616 Y141.942 E12.84245
G1 X92.121 Y141.13 E12.89903
G1 X91.965 Y141.039 E12.90504
G1 X90.493 Y140.135 E12.9625
G1 X90.344 Y140.038 E12.96841
G1 X88.944 Y139.074 E13.02494
G1 X88.802 Y138.971 E13.03078
G1 X87.47 Y137.949 E13.08662
G1 X87.33 Y137.836 E13.0926
G1 X86.044 Y136.736 E13.14889
G1 X85.914 Y136.619 E13.15471
G1 X84.675 Y135.444 E13.2115
G1 X84.548 Y135.316 E13.2175
G1 X83.376 Y134.08 E13.27415
G1 X83.257 Y133.949 E13.28004
G1 X82.16 Y132.664 E13.33623
G1 X82.048 Y132.525 E13.34217
G1 X81.005 Y131.165 E13.39917
G1 X80.903 Y131.024 E13.40496
G1 X79.937 Y129.621 E13.46162
G1 X79.837 Y129.468 E13.46769
G1 X78.951 Y128.02 E13.52416
G1 X78.863 Y127.867 E13.53003
G1 X78.055 Y126.378 E13.58637
G1 X77.974 Y126.219 E13.59231
G1 X77.237 Y124.673 E13.64927
G1 X77.164 Y124.51 E13.65521
G1 X76.514 Y122.939 E13.71176
G1 X76.45 Y122.772 E13.71771
G1 X75.883 Y121.168 E13.77429
G1 X75.829 Y121.002 E13.7801
G1 X75.345 Y119.37 E13.83672
G1 X75.299 Y119.196 E13.8427
G1 X74.905 Y117.553 E13.8989
G1 X74.868 Y117.379 E13.90481
G1 X74.556 Y115.695 E13.96178
G1 X74.528 Y115.519 E13.9677
G1 X74.306 Y113.831 E14.02433
G1 X74.287 Y113.654 E14.03025
G1 X74.155 Y111.97 E14.08643
G1 X74.146 Y111.794 E14.0923
G1 X74.101 Y110.092 E14.14892
G1 X74.101 Y109.913 E14.15488
G1 X74.146 Y108.203 E14.21177
G1 X74.155 Y108.026 E14.21767
G1 X74.287 Y106.341 E14.27388
G1 X74.306 Y106.162 E14.27987
G1 X74.529 Y104.473 E14.33653
G1 X74.557 Y104.3 E14.34236
G1 X74.868 Y102.617 E14.39929
G1 X74.905 Y102.439 E14.40533
G1 X75.301 Y100.794 E14.46161
G1 X75.348 Y100.622 E14.46754
G1 X75.832 Y98.992 E14.52409
G1 X75.885 Y98.827 E14.52986
G1 X76.452 Y97.223 E14.58644
G1 X76.517 Y97.055 E14.59243
G1 X77.168 Y95.483 E14.64902
G1 X77.24 Y95.32 E14.65495
G1 X77.977 Y93.775 E14.71188
G1 X78.058 Y93.617 E14.71779
G1 X78.865 Y92.13 E14.77406
G1 X78.954 Y91.976 E14.77998
G1 X79.843 Y90.525 E14.83658
G1 X79.94 Y90.375 E14.84252
G1 X80.903 Y88.974 E14.89906
G1 X81.007 Y88.831 E14.90494
G1 X82.05 Y87.471 E14.96195
G1 X82.164 Y87.33 E14.96798
G1 X83.262 Y86.046 E15.02417
G1 X83.379 Y85.917 E15.02996
G1 X84.549 Y84.683 E15.08652
G0 F6000 X84.839 Y84.958
G1 F1200 X84.951 Y84.845 E15.09181
G1 X86.194 Y83.666 E15.14879
G1 X86.311 Y83.561 E15.15402
G1 X87.596 Y82.464 E15.21022
G1 X87.721 Y82.363 E15.21556
G1 X89.109 Y81.301 E15.27369
G1 X89.23 Y81.213 E15.27867
G1 X90.596 Y80.272 E15.33384
G1 X90.732 Y80.184 E15.33922
G1 X92.189 Y79.292 E15.39604
G1 X92.324 Y79.214 E15.40123
G1 X93.813 Y78.406 E15.45758
G1 X93.956 Y78.334 E15.4629
G1 X95.529 Y77.586 E15.52083
G1 X95.67 Y77.523 E15.52597
G1 X97.204 Y76.888 E15.58119
G1 X97.35 Y76.832 E15.58639
G1 X98.964 Y76.261 E15.64333
G1 X99.114 Y76.212 E15.64858
G1 X100.78 Y75.719 E15.70637
G1 X100.933 Y75.678 E15.71164
G1 X102.542 Y75.293 E15.76666
G1 X102.693 Y75.261 E15.7718
G1 X104.377 Y74.949 E15.82876
G1 X104.532 Y74.925 E15.83398
G1 X106.215 Y74.703 E15.89044
G1 X106.376 Y74.686 E15.89582
G1 X108.099 Y74.553 E15.9533
G1 X108.251 Y74.545 E15.95836
G1 X109.924 Y74.501 E16.01403
G1 X110.084 Y74.501 E16.01935
G1 X111.823 Y74.548 E16.07721
G1 X111.982 Y74.557 E16.0825
G1 X113.667 Y74.692 E16.13873
G1 X113.819 Y74.708 E16.14381
G1 X115.474 Y74.926 E16.19933
