;FLAVOR:Marlin
;TIME:8235
;Filament used: 5.30709m
;Layer height: 0.2
;MINX:82.981
;MINY:74.608
;MINZ:0.2
;MAXX:140.081
;MAXY:135.307
;MAXZ:33
;Generated with Cura_SteamEngine 4.10.0
M140 S60
M105
M190 S60
M104 S200
M105
M109 S200
M82 ;absolute extrusion mode
; Ender 3 Custom Start G-code
G92 E0 ; Reset Extruder
G28 ; Home all axes
G1 Z2.0 F3000 ; Move Z Axis up little to prevent scratching of Heat Bed
G1 X0.1 Y20 Z0.3 F5000.0 ; Move to start position
G1 X0.1 Y200.0 Z0.3 F1500.0 E15 ; Draw the first line
G1 X0.4 Y200.0 Z0.3 F5000.0 ; Move to side a little
G1 X0.4 Y20 Z0.3 F1500.0 E30 ; Draw the second line
G92 E0 ; Reset Extruder
G1 Z2.0 F3000 ; Move Z Axis up little to prevent scratching of Heat Bed
G1 X5 Y20 Z0.3 F5000.0 ; Move over to prevent blob squish
G92 E0
G92 E0
G1 F1500 E-6.5
;LAYER_COUNT:165
;LAYER:0
M107
G0 F6000 X84.094 Y75.838 Z0.2
;TYPE:SKIRT
G1 F1500 E0
G1 F1200 X84.211 Y75.721 E0.0055
G1 X84.628 Y75.361 E0.02383
G1 X85.092 Y75.064 E0.04215
G1 X85.595 Y74.838 E0.06049
G1 X86.125 Y74.687 E0.07882
G1 X86.898 Y74.608 E0.10466
G1 X136.164 Y74.608 E1.74326
G1 X136.714 Y74.648 E1.7616
G1 X137.252 Y74.767 E1.77993
G1 X137.767 Y74.963 E1.79825
G1 X138.248 Y75.231 E1.81657
G1 X138.851 Y75.721 E1.84241
G1 X138.968 Y75.838 E1.84791
G1 X139.328 Y76.255 E1.86624
G1 X139.625 Y76.719 E1.88456
G1 X139.851 Y77.222 E1.9029
G1 X140.002 Y77.752 E1.92123
G1 X140.081 Y78.525 E1.94707
G1 X140.081 Y131.39 E3.70537
G1 X140.041 Y131.94 E3.72371
G1 X139.922 Y132.478 E3.74204
G1 X139.726 Y132.993 E3.76037
G1 X139.458 Y133.474 E3.77868
G1 X138.968 Y134.077 E3.80452
G1 X138.851 Y134.194 E3.81003
G1 X138.434 Y134.554 E3.82835
G1 X137.97 Y134.851 E3.84667
G1 X137.467 Y135.077 E3.86501
G1 X136.937 Y135.228 E3.88334
G1 X136.164 Y135.307 E3.90919
G1 X86.898 Y135.307 E5.54778
G1 X86.348 Y135.267 E5.56612
G1 X85.81 Y135.148 E5.58445
G1 X85.295 Y134.952 E5.60278
G1 X84.814 Y134.684 E5.62109
G1 X84.211 Y134.194 E5.64693
G1 X84.094 Y134.077 E5.65244
G1 X83.734 Y133.66 E5.67076
G1 X83.437 Y133.196 E5.68908
G1 X83.211 Y132.693 E5.70742
G1 X83.06 Y132.163 E5.72575
G1 X82.981 Y131.39 E5.7516
G1 X82.981 Y78.525 E7.50989
G1 X83.021 Y77.975 E7.52823
G1 X83.14 Y77.437 E7.54656
G1 X83.336 Y76.922 E7.56489
G1 X83.604 Y76.441 E7.5832
G1 X84.094 Y75.838 E7.60905
G0 F6000 X84.377 Y76.121
G1 F1200 X84.494 Y76.004 E7.61455
G1 X84.89 Y75.665 E7.63189
G1 X85.332 Y75.39 E7.6492
G1 X85.812 Y75.186 E7.66655
G1 X86.317 Y75.058 E7.68387
G1 X86.898 Y75.008 E7.70327
G1 X136.164 Y75.008 E9.34186
G1 X136.684 Y75.048 E9.35921
G1 X137.191 Y75.167 E9.37653
G1 X137.674 Y75.362 E9.39386
G1 X138.122 Y75.628 E9.41119
G1 X138.568 Y76.004 E9.43059
G1 X138.685 Y76.121 E9.43609
G1 X139.024 Y76.517 E9.45343
G1 X139.299 Y76.959 E9.47074
G1 X139.503 Y77.439 E9.48809
G1 X139.631 Y77.944 E9.50542
G1 X139.681 Y78.525 E9.52481
G1 X139.681 Y131.39 E11.28311
G1 X139.641 Y131.91 E11.30046
G1 X139.522 Y132.417 E11.31778
G1 X139.327 Y132.9 E11.3351
G1 X139.061 Y133.348 E11.35243
G1 X138.685 Y133.794 E11.37183
G1 X138.568 Y133.911 E11.37734
G1 X138.172 Y134.25 E11.39467
G1 X137.73 Y134.525 E11.41199
G1 X137.25 Y134.729 E11.42934
G1 X136.745 Y134.857 E11.44666
G1 X136.164 Y134.907 E11.46606
G1 X86.898 Y134.907 E13.10465
G1 X86.378 Y134.867 E13.122
G1 X85.871 Y134.748 E13.13932
G1 X85.388 Y134.553 E13.15664
G1 X84.94 Y134.287 E13.17397
G1 X84.494 Y133.911 E13.19338
G1 X84.377 Y133.794 E13.19888
G1 X84.038 Y133.398 E13.21622
G1 X83.763 Y132.956 E13.23353
G1 X83.559 Y132.476 E13.25088
G1 X83.431 Y131.971 E13.26821
G1 X83.381 Y131.39 E13.2876
G1 X83.381 Y78.525 E15.0459
G1 X83.421 Y78.005 E15.06324
G1 X83.54 Y77.498 E15.08057
G1 X83.735 Y77.015 E15.09789
G1 X84.001 Y76.567 E15.11522
G1 X84.377 Y76.121 E15.13462
G0 F6000 X84.66 Y76.404
G1 F1200 X84.777 Y76.287 E15.14012
G1 X85.15 Y75.97 E15.15641
G1 X85.57 Y75.718 E15.1727
G1 X86.025 Y75.538 E15.18897
G1 X86.503 Y75.434 E15.20524
G1 X86.898 Y75.408 E15.21841
G1 X136.164 Y75.408 E16.857
G1 X136.652 Y75.448 E16.87329
G1 X137.127 Y75.567 E16.88957
G1 X137.576 Y75.761 E16.90584
G1 X137.988 Y76.026 E16.92213
G1 X138.285 Y76.287 E16.93529
G1 X138.402 Y76.404 E16.94079
G1 X138.719 Y76.777 E16.95707
G1 X138.971 Y77.197 E16.97336
G1 X139.151 Y77.652 E16.98964
G1 X139.255 Y78.13 E17.00591
G1 X139.281 Y78.525 E17.01907
G1 X139.281 Y131.39 E18.77737
G1 X139.241 Y131.878 E18.79365
G1 X139.122 Y132.353 E18.80994
G1 X138.928 Y132.802 E18.82621
G1 X138.663 Y133.214 E18.8425
G1 X138.402 Y133.511 E18.85565
G1 X138.285 Y133.628 E18.86116
G1 X137.912 Y133.945 E18.87744
G1 X137.492 Y134.197 E18.89373
G1 X137.037 Y134.377 E18.91
G1 X136.559 Y134.481 E18.92627
G1 X136.164 Y134.507 E18.93944
G1 X86.898 Y134.507 E20.57803
G1 X86.41 Y134.467 E20.59432
G1 X85.935 Y134.348 E20.6106
G1 X85.486 Y134.154 E20.62687
G1 X85.074 Y133.889 E20.64317
G1 X84.777 Y133.628 E20.65632
G1 X84.66 Y133.511 E20.66182
G1 X84.343 Y133.138 E20.6781
G1 X84.091 Y132.718 E20.69439
G1 X83.911 Y132.263 E20.71067
G1 X83.807 Y131.785 E20.72694
G1 X83.781 Y131.39 E20.7401
G1 X83.781 Y78.525 E22.4984
G1 X83.821 Y78.037 E22.51469
G1 X83.94 Y77.562 E22.53097
G1 X84.134 Y77.113 E22.54724
G1 X84.399 Y76.701 E22.56353
G1 X84.66 Y76.404 E22.57668
G0 F6000 X84.943 Y76.687
G1 F1200 X85.06 Y76.57 E22.58219
G1 X85.409 Y76.277 E22.59734
G1 X85.804 Y76.05 E22.6125
G1 X86.232 Y75.895 E22.62764
G1 X86.898 Y75.808 E22.64998
G1 X136.164 Y75.808 E24.28857
G1 X136.618 Y75.848 E24.30373
G1 X137.058 Y75.966 E24.31888
G1 X137.47 Y76.16 E24.33403
G1 X138.002 Y76.57 E24.35637
G1 X138.119 Y76.687 E24.36187
G1 X138.412 Y77.036 E24.37702
G1 X138.639 Y77.431 E24.39218
G1 X138.794 Y77.859 E24.40732
G1 X138.881 Y78.525 E24.42966
G1 X138.881 Y131.39 E26.18795
G1 X138.841 Y131.844 E26.20311
G1 X138.723 Y132.284 E26.21826
G1 X138.529 Y132.696 E26.23341
G1 X138.119 Y133.228 E26.25575
G1 X138.002 Y133.345 E26.26125
G1 X137.653 Y133.638 E26.27641
G1 X137.258 Y133.865 E26.29156
G1 X136.83 Y134.02 E26.3067
G1 X136.164 Y134.107 E26.32904
G1 X86.898 Y134.107 E27.96764
G1 X86.444 Y134.067 E27.98279
G1 X86.004 Y133.949 E27.99795
G1 X85.592 Y133.755 E28.01309
G1 X85.06 Y133.345 E28.03543
G1 X84.943 Y133.228 E28.04093
G1 X84.65 Y132.879 E28.05609
G1 X84.423 Y132.484 E28.07124
G1 X84.268 Y132.056 E28.08638
G1 X84.181 Y131.39 E28.10872
G1 X84.181 Y78.525 E29.86702
G1 X84.221 Y78.071 E29.88218
G1 X84.339 Y77.631 E29.89733
G1 X84.533 Y77.219 E29.91248
G1 X84.943 Y76.687 E29.93482
G0 F6000 X85.225 Y76.969
G1 F1200 X85.342 Y76.852 E29.94032
G1 X85.666 Y76.586 E29.95426
G1 X86.033 Y76.385 E29.96818
G1 X86.433 Y76.258 E29.98214
G1 X86.898 Y76.208 E29.99769
G1 X136.164 Y76.208 E31.63629
G1 X136.581 Y76.248 E31.65022
G1 X136.983 Y76.366 E31.66415
G1 X137.355 Y76.559 E31.67809
G1 X137.72 Y76.852 E31.69366
G1 X137.837 Y76.969 E31.69916
G1 X138.103 Y77.293 E31.71311
G1 X138.304 Y77.66 E31.72702
G1 X138.431 Y78.06 E31.74098
G1 X138.481 Y78.525 E31.75654
G1 X138.481 Y131.39 E33.51484
G1 X138.441 Y131.807 E33.52877
G1 X138.323 Y132.209 E33.5427
G1 X138.13 Y132.581 E33.55664
G1 X137.837 Y132.946 E33.57221
G1 X137.72 Y133.063 E33.57771
G1 X137.396 Y133.329 E33.59166
G1 X137.029 Y133.53 E33.60557
G1 X136.629 Y133.657 E33.61953
G1 X136.164 Y133.707 E33.63509
G1 X86.898 Y133.707 E35.27368
G1 X86.481 Y133.667 E35.28761
G1 X86.079 Y133.549 E35.30155
G1 X85.707 Y133.356 E35.31549
G1 X85.342 Y133.063 E35.33105
G1 X85.225 Y132.946 E35.33656
G1 X84.959 Y132.622 E35.3505
G1 X84.758 Y132.255 E35.36442
G1 X84.631 Y131.855 E35.37838
G1 X84.581 Y131.39 E35.39393
G1 X84.581 Y78.525 E37.15223
G1 X84.621 Y78.108 E37.16616
G1 X84.739 Y77.706 E37.1801
G1 X84.932 Y77.334 E37.19404
G1 X85.225 Y76.969 E37.2096
G0 F6000 X85.508 Y77.252
G1 F1200 X85.625 Y77.135 E37.21511
G1 X85.92 Y76.897 E37.22771
G1 X86.258 Y76.726 E37.24031
G1 X86.624 Y76.629 E37.25291
G1 X86.898 Y76.608 E37.26205
G1 X136.164 Y76.608 E38.90064
G1 X136.541 Y76.648 E38.91325
G1 X136.901 Y76.766 E38.92585
G1 X137.228 Y76.956 E38.93843
G1 X137.437 Y77.135 E38.94758
G1 X137.554 Y77.252 E38.95308
G1 X137.792 Y77.547 E38.96569
G1 X137.963 Y77.885 E38.97829
G1 X138.06 Y78.251 E38.99088
G1 X138.081 Y78.525 E39.00002
G1 X138.081 Y131.39 E40.75832
G1 X138.041 Y131.767 E40.77093
G1 X137.923 Y132.127 E40.78353
G1 X137.733 Y132.454 E40.79611
G1 X137.554 Y132.663 E40.80526
G1 X137.437 Y132.78 E40.81076
G1 X137.142 Y133.018 E40.82337
G1 X136.804 Y133.189 E40.83597
G1 X136.438 Y133.286 E40.84856
G1 X136.164 Y133.307 E40.8577
G1 X86.898 Y133.307 E42.4963
G1 X86.521 Y133.267 E42.50891
G1 X86.161 Y133.149 E42.52151
G1 X85.834 Y132.959 E42.53409
G1 X85.625 Y132.78 E42.54324
G1 X85.508 Y132.663 E42.54874
G1 X85.27 Y132.368 E42.56135
G1 X85.099 Y132.03 E42.57395
G1 X85.002 Y131.664 E42.58654
G1 X84.981 Y131.39 E42.59568
G1 X84.981 Y78.525 E44.35398
G1 X85.021 Y78.148 E44.36659
G1 X85.139 Y77.788 E44.37919
G1 X85.329 Y77.461 E44.39177
G1 X85.508 Y77.252 E44.40092
G0 F6000 X85.791 Y77.535
G1 F1200 X85.908 Y77.418 E44.40642
G1 X86.171 Y77.212 E44.41753
G1 X86.475 Y77.073 E44.42865
G1 X86.898 Y77.008 E44.44288
G1 X136.164 Y77.008 E46.08148
G1 X136.496 Y77.048 E46.0926
G1 X136.808 Y77.165 E46.10368
G1 X137.154 Y77.418 E46.11794
G1 X137.271 Y77.535 E46.12344
G1 X137.477 Y77.798 E46.13455
G1 X137.616 Y78.102 E46.14567
G1 X137.681 Y78.525 E46.15991
G1 X137.681 Y131.39 E47.9182
G1 X137.641 Y131.722 E47.92933
G1 X137.524 Y132.034 E47.94041
G1 X137.271 Y132.38 E47.95467
G1 X137.154 Y132.497 E47.96017
G1 X136.891 Y132.703 E47.97128
G1 X136.587 Y132.842 E47.9824
G1 X136.164 Y132.907 E47.99663
G1 X86.898 Y132.907 E49.63523
G1 X86.566 Y132.867 E49.64635
G1 X86.254 Y132.75 E49.65743
G1 X85.908 Y132.497 E49.67169
G1 X85.791 Y132.38 E49.67719
G1 X85.585 Y132.117 E49.6883
G1 X85.446 Y131.813 E49.69942
G1 X85.381 Y131.39 E49.71365
G1 X85.381 Y78.525 E51.47195
G1 X85.421 Y78.193 E51.48307
G1 X85.538 Y77.881 E51.49416
G1 X85.791 Y77.535 E51.50841
G0 F6000 X86.191 Y77.701
G1 F1200 X86.417 Y77.532 E51.5178
G1 X86.681 Y77.432 E51.52719
G1 X86.898 Y77.408 E51.53445
G1 X136.164 Y77.408 E53.17304
G1 X136.443 Y77.448 E53.18242
G1 X136.7 Y77.564 E53.1918
G1 X136.988 Y77.818 E53.20457
G1 X137.157 Y78.044 E53.21395
G1 X137.257 Y78.308 E53.22334
G1 X137.281 Y78.525 E53.2306
G1 X137.281 Y131.39 E54.9889
G1 X137.241 Y131.669 E54.99828
G1 X137.125 Y131.926 E55.00765
G1 X136.871 Y132.214 E55.02043
G1 X136.645 Y132.383 E55.02981
G1 X136.381 Y132.483 E55.0392
G1 X136.164 Y132.507 E55.04646
G1 X86.898 Y132.507 E56.68506
G1 X86.619 Y132.467 E56.69443
G1 X86.362 Y132.351 E56.70381
G1 X86.074 Y132.097 E56.71658
G1 X85.905 Y131.871 E56.72597
G1 X85.805 Y131.607 E56.73536
G1 X85.781 Y131.39 E56.74262
G1 X85.781 Y78.525 E58.50092
G1 X85.821 Y78.246 E58.51029
G1 X85.937 Y77.989 E58.51967
G1 X86.191 Y77.701 E58.53244
G0 F6000 X86.474 Y77.984
G1 F1200 X86.653 Y77.86 E58.53968
G1 X86.898 Y77.808 E58.54801
G1 X136.164 Y77.808 E60.18661
G1 X136.379 Y77.848 E60.19388
G1 X136.705 Y78.101 E60.20761
G1 X136.829 Y78.28 E60.21485
G1 X136.881 Y78.525 E60.22318
G1 X136.881 Y131.39 E61.98148
G1 X136.841 Y131.605 E61.98875
G1 X136.588 Y131.931 E62.00247
G1 X136.409 Y132.055 E62.00972
G1 X136.164 Y132.107 E62.01805
G1 X86.898 Y132.107 E63.65664
G1 X86.683 Y132.067 E63.66391
G1 X86.357 Y131.814 E63.67764
G1 X86.233 Y131.635 E63.68488
G1 X86.181 Y131.39 E63.69321
G1 X86.181 Y78.525 E65.45151
G1 X86.221 Y78.31 E65.45878
G1 X86.474 Y77.984 E65.47251
G0 F6000 X86.64 Y78.384
G1 F1200 X86.757 Y78.267 E65.47801
G1 X86.898 Y78.208 E65.4831
G1 X136.164 Y78.208 E67.12169
G1 X136.305 Y78.267 E67.12677
G1 X136.422 Y78.384 E67.13228
G1 X136.481 Y78.525 E67.13736
G1 X136.481 Y131.39 E68.89566
G1 X136.422 Y131.531 E68.90074
G1 X136.305 Y131.648 E68.90624
G1 X136.164 Y131.707 E68.91133
G1 X86.898 Y131.707 E70.54992
G1 X86.757 Y131.648 E70.555
G1 X86.64 Y131.531 E70.56051
G1 X86.581 Y131.39 E70.56559
G1 X86.581 Y78.525 E72.32389
G1 X86.64 Y78.384 E72.32897
G1 F1500 E65.82897
;MESH:TapaTubo.stl
G0 F6000 X87.591 Y79.218
G0 X87.281 Y131.037
G0 X86.981 Y131.307
;TYPE:WALL-OUTER
G1 F1500 E72.32897
G1 F1200 X86.981 Y78.608 E74.08175
G1 X136.081 Y78.608 E75.71482
G1 X136.081 Y131.307 E77.4676
G1 X86.981 Y131.307 E79.10067
G0 F6000 X87.381 Y130.907
;TYPE:WALL-INNER
G1 F1200 X87.381 Y79.008 E80.82684
G1 X135.681 Y79.008 E82.4333
G1 X135.681 Y130.907 E84.15947
G1 X87.381 Y130.907 E85.76593
G0 F6000 X87.771 Y130.517
;TYPE:SKIN
G1 F1200 X87.771 Y79.398 E87.46616
G1 X135.291 Y79.398 E89.04668
G1 X135.291 Y130.517 E90.74691
G1 X87.771 Y130.517 E92.32743
G0 F6000 X88.495 Y130.355
G1 F1200 X87.93 Y129.79 E92.354
G0 F6000 X87.93 Y129.225
G1 F1200 X89.06 Y130.355 E92.40715
G0 F6000 X89.626 Y130.355
G1 F1200 X87.93 Y128.659 E92.48693
G0 F6000 X87.93 Y128.093
G1 F1200 X90.192 Y130.355 E92.59333
G0 F6000 X90.757 Y130.355
G1 F1200 X87.93 Y127.528 E92.7263
G0 F6000 X87.93 Y126.962
G1 F1200 X91.323 Y130.355 E92.8859
G0 F6000 X91.889 Y130.355
G1 F1200 X87.93 Y126.396 E93.07212
G0 F6000 X87.93 Y125.831
G1 F1200 X92.454 Y130.355 E93.28491
G0 F6000 X93.02 Y130.355
G1 F1200 X87.93 Y125.265 E93.52433
G0 F6000 X87.93 Y124.699
G1 F1200 X93.586 Y130.355 E93.79037
G0 F6000 X94.151 Y130.355
G1 F1200 X87.93 Y124.134 E94.08299
G0 F6000 X87.93 Y123.568
G1 F1200 X94.717 Y130.355 E94.40223
G0 F6000 X95.283 Y130.355
G1 F1200 X87.93 Y123.002 E94.74809
G0 F6000 X87.93 Y122.436
G1 F1200 X95.849 Y130.355 E95.12057
G0 F6000 X96.414 Y130.355
G1 F1200 X87.93 Y121.871 E95.51964
G0 F6000 X87.93 Y121.305
G1 F1200 X96.98 Y130.355 E95.94532
G0 F6000 X97.546 Y130.355
G1 F1200 X87.93 Y120.739 E96.39763
G0 F6000 X87.93 Y120.174
G1 F1200 X98.111 Y130.355 E96.87651
G0 F6000 X98.677 Y130.355
G1 F1200 X87.93 Y119.608 E97.38202
G0 F6000 X87.93 Y119.042
G1 F1200 X99.243 Y130.355 E97.91414
G0 F6000 X99.808 Y130.355
G1 F1200 X87.93 Y118.477 E98.47285
G0 F6000 X87.93 Y117.911
G1 F1200 X100.374 Y130.355 E99.05818
G0 F6000 X100.94 Y130.355
G1 F1200 X87.93 Y117.345 E99.67013
G0 F6000 X87.93 Y116.78
G1 F1200 X101.505 Y130.355 E100.30865
G0 F6000 X102.071 Y130.355
G1 F1200 X87.93 Y116.214 E100.9738
G0 F6000 X87.93 Y115.648
G1 F1200 X102.637 Y130.355 E101.66558
G0 F6000 X103.202 Y130.355
G1 F1200 X87.93 Y115.083 E102.38392
G0 F6000 X87.93 Y114.517
G1 F1200 X103.768 Y130.355 E103.12889
G0 F6000 X104.334 Y130.355
G1 F1200 X87.93 Y113.951 E103.90049
G0 F6000 X87.93 Y113.385
G1 F1200 X104.899 Y130.355 E104.69868
G0 F6000 X105.465 Y130.355
G1 F1200 X87.93 Y112.82 E105.52347
G0 F6000 X87.93 Y112.254
G1 F1200 X106.031 Y130.355 E106.37489
G0 F6000 X106.597 Y130.355
G1 F1200 X87.93 Y111.688 E107.25293
G0 F6000 X87.93 Y111.123
G1 F1200 X107.162 Y130.355 E108.15754
G0 F6000 X107.728 Y130.355
G1 F1200 X87.93 Y110.557 E109.08878
G0 F6000 X87.93 Y109.991
G1 F1200 X108.294 Y130.355 E110.04664
G0 F6000 X108.859 Y130.355
G1 F1200 X87.93 Y109.426 E111.03108
G0 F6000 X87.93 Y108.86
G1 F1200 X109.425 Y130.355 E112.04213
G0 F6000 X109.991 Y130.355
G1 F1200 X87.93 Y108.294 E113.07982
G0 F6000 X87.93 Y107.729
G1 F1200 X110.556 Y130.355 E114.14407
G0 F6000 X111.122 Y130.355
G1 F1200 X87.93 Y107.163 E115.23495
G0 F6000 X87.93 Y106.597
G1 F1200 X111.688 Y130.356 E116.35248
G0 F6000 X112.254 Y130.356
G1 F1200 X87.93 Y106.032 E117.49661
G0 F6000 X87.93 Y105.466
G1 F1200 X112.82 Y130.356 E118.66736
G0 F6000 X113.385 Y130.356
G1 F1200 X87.93 Y104.9 E119.86471
G0 F6000 X87.93 Y104.335
G1 F1200 X113.951 Y130.356 E121.08865
G0 F6000 X114.517 Y130.356
G1 F1200 X87.93 Y103.769 E122.33923
G0 F6000 X87.93 Y103.203
G1 F1200 X115.083 Y130.356 E123.61642
G0 F6000 X115.648 Y130.356
G1 F1200 X87.93 Y102.637 E124.92021
G0 F6000 X87.93 Y102.072
G1 F1200 X116.214 Y130.356 E126.25061
G0 F6000 X116.78 Y130.356
G1 F1200 X87.93 Y101.506 E127.60762
G0 F6000 X87.93 Y100.94
G1 F1200 X117.345 Y130.356 E128.99124
G0 F6000 X117.911 Y130.356
G1 F1200 X87.93 Y100.375 E130.40145
G0 F6000 X87.93 Y99.809
G1 F1200 X118.477 Y130.356 E131.83829
G0 F6000 X119.042 Y130.356
G1 F1200 X87.93 Y99.243 E133.30172
G0 F6000 X87.93 Y98.678
G1 F1200 X119.608 Y130.356 E134.79176
G0 F6000 X120.174 Y130.356
G1 F1200 X87.93 Y98.112 E136.30842
G0 F6000 X87.93 Y97.546
G1 F1200 X120.739 Y130.356 E137.85168
G0 F6000 X121.305 Y130.356
