;FLAVOR:Marlin
;TIME:8752
;Filament used: 4.84609m
;Layer height: 0.2
;MINX:65.7
;MINY:65.7
;MINZ:0.2
;MAXX:154.3
;MAXY:154.3
;MAXZ:92
;Generated with Cura_SteamEngine 4.10.0
M140 S60
M105
M190 S60
M104 S200
M105
M109 S200
M82 ;absolute extrusion mode
; Ender 3 Custom Start G-code
G92 E0 ; Reset Extruder
G28 ; Home all axes
G1 Z2.0 F3000 ; Move Z Axis up little to prevent scratching of Heat Bed
G1 X0.1 Y20 Z0.3 F5000.0 ; Move to start position
G1 X0.1 Y200.0 Z0.3 F1500.0 E15 ; Draw the first line
G1 X0.4 Y200.0 Z0.3 F5000.0 ; Move to side a little
G1 X0.4 Y20 Z0.3 F1500.0 E30 ; Draw the second line
G92 E0 ; Reset Extruder
G1 Z2.0 F3000 ; Move Z Axis up little to prevent scratching of Heat Bed
G1 X5 Y20 Z0.3 F5000.0 ; Move over to prevent blob squish
G92 E0
G92 E0
G1 F1500 E-6.5
;LAYER_COUNT:460
;LAYER:0
M107
G0 F6000 X146.055 Y68.014 Z0.2
;TYPE:SKIRT
G1 F1500 E0
G1 F1200 X146.323 Y67.533 E0.01831
G1 X146.813 Y66.93 E0.04416
G1 X146.93 Y66.813 E0.04966
G1 X147.347 Y66.453 E0.06798
G1 X147.811 Y66.156 E0.08631
G1 X148.314 Y65.93 E0.10465
G1 X148.844 Y65.779 E0.12298
G1 X149.617 Y65.7 E0.14882
G1 X150.383 Y65.7 E0.1743
G1 X150.933 Y65.74 E0.19264
G1 X151.471 Y65.859 E0.21097
G1 X151.986 Y66.055 E0.22929
G1 X152.467 Y66.323 E0.24761
G1 X153.07 Y66.813 E0.27345
G1 X153.187 Y66.93 E0.27895
G1 X153.547 Y67.347 E0.29728
G1 X153.844 Y67.811 E0.3156
G1 X154.07 Y68.314 E0.33394
G1 X154.221 Y68.844 E0.35227
G1 X154.3 Y69.617 E0.37811
G1 X154.3 Y99.459 E1.37066
G1 X154.26 Y100.009 E1.389
G1 X154.141 Y100.547 E1.40733
G1 X154.008 Y100.921 E1.42053
G1 X153.978 Y100.993 E1.42313
G1 X153.729 Y101.484 E1.44144
G1 X153.413 Y101.935 E1.45975
G1 X153.157 Y102.218 E1.47245
G1 X102.218 Y153.157 E3.86846
G1 X101.801 Y153.517 E3.88678
G1 X101.337 Y153.814 E3.90511
G1 X100.993 Y153.978 E3.91778
G1 X100.921 Y154.008 E3.92038
G1 X100.398 Y154.182 E3.93871
G1 X99.856 Y154.279 E3.95702
G1 X99.459 Y154.3 E3.97024
G1 X69.617 Y154.3 E4.96279
G1 X69.067 Y154.26 E4.98114
G1 X68.529 Y154.141 E4.99946
G1 X68.014 Y153.945 E5.01779
G1 X67.533 Y153.677 E5.0361
G1 X66.93 Y153.187 E5.06195
G1 X66.813 Y153.07 E5.06745
G1 X66.453 Y152.653 E5.08577
G1 X66.156 Y152.189 E5.1041
G1 X65.93 Y151.686 E5.12244
G1 X65.779 Y151.156 E5.14077
G1 X65.7 Y150.383 E5.16661
G1 X65.7 Y149.617 E5.19209
G1 X65.74 Y149.067 E5.21043
G1 X65.859 Y148.529 E5.22875
G1 X66.055 Y148.014 E5.24708
G1 X66.323 Y147.533 E5.2654
G1 X66.813 Y146.93 E5.29124
G1 X66.93 Y146.813 E5.29674
G1 X67.347 Y146.453 E5.31507
G1 X67.811 Y146.156 E5.33339
G1 X68.314 Y145.93 E5.35173
G1 X68.844 Y145.779 E5.37006
G1 X69.617 Y145.7 E5.3959
G1 X75.821 Y145.7 E5.60225
G1 X75.859 Y145.529 E5.60808
G1 X76.055 Y145.014 E5.6264
G1 X76.323 Y144.533 E5.64472
G1 X76.813 Y143.93 E5.67056
G1 X76.93 Y143.813 E5.67606
G1 X77.347 Y143.453 E5.69439
G1 X77.811 Y143.156 E5.71271
G1 X78.314 Y142.93 E5.73105
G1 X78.844 Y142.779 E5.74938
G1 X79.617 Y142.7 E5.77522
G1 X89.383 Y142.7 E6.10004
G1 X89.933 Y142.74 E6.11838
G1 X90.471 Y142.859 E6.13671
G1 X90.986 Y143.055 E6.15504
G1 X91.467 Y143.323 E6.17335
G1 X92.07 Y143.813 E6.19919
G1 X92.187 Y143.93 E6.2047
G1 X92.547 Y144.347 E6.22302
G1 X92.844 Y144.811 E6.24134
G1 X93.07 Y145.314 E6.25968
G1 X93.18 Y145.7 E6.27303
G1 X97.927 Y145.7 E6.43092
G1 X145.7 Y97.927 E8.67801
G1 X145.7 Y93.179 E8.83593
G1 X145.529 Y93.141 E8.84176
G1 X145.014 Y92.945 E8.86009
G1 X144.533 Y92.677 E8.8784
G1 X143.93 Y92.187 E8.90424
G1 X143.813 Y92.07 E8.90975
G1 X143.453 Y91.653 E8.92807
G1 X143.156 Y91.189 E8.94639
G1 X142.93 Y90.686 E8.96473
G1 X142.779 Y90.156 E8.98306
G1 X142.7 Y89.383 E9.00891
G1 X142.7 Y79.617 E9.33373
G1 X142.74 Y79.067 E9.35207
G1 X142.859 Y78.529 E9.37039
G1 X143.055 Y78.014 E9.38872
G1 X143.323 Y77.533 E9.40704
G1 X143.813 Y76.93 E9.43288
G1 X143.93 Y76.813 E9.43838
G1 X144.347 Y76.453 E9.4567
G1 X144.811 Y76.156 E9.47503
G1 X145.314 Y75.93 E9.49337
G1 X145.7 Y75.82 E9.50672
G1 X145.7 Y69.617 E9.71303
G1 X145.74 Y69.067 E9.73137
G1 X145.859 Y68.529 E9.7497
G1 X146.055 Y68.014 E9.76803
G0 F6000 X146.454 Y68.107
G1 F1200 X146.72 Y67.659 E9.78536
G1 X147.096 Y67.213 E9.80476
G1 X147.213 Y67.096 E9.81026
G1 X147.609 Y66.757 E9.8276
G1 X148.051 Y66.482 E9.84491
G1 X148.531 Y66.278 E9.86226
G1 X149.036 Y66.15 E9.87959
G1 X149.617 Y66.1 E9.89898
G1 X150.383 Y66.1 E9.92446
G1 X150.903 Y66.14 E9.94181
G1 X151.41 Y66.259 E9.95913
G1 X151.893 Y66.454 E9.97645
G1 X152.341 Y66.72 E9.99378
G1 X152.787 Y67.096 E10.01318
G1 X152.904 Y67.213 E10.01869
G1 X153.243 Y67.609 E10.03603
G1 X153.518 Y68.051 E10.05334
G1 X153.722 Y68.531 E10.07069
G1 X153.85 Y69.036 E10.08801
G1 X153.9 Y69.617 E10.10741
G1 X153.9 Y99.459 E11.09996
G1 X153.86 Y99.979 E11.1173
G1 X153.741 Y100.486 E11.13463
G1 X153.638 Y100.767 E11.14458
G1 X153.608 Y100.839 E11.14717
G1 X153.372 Y101.303 E11.16449
G1 X153.067 Y101.726 E11.18183
G1 X152.874 Y101.935 E11.1913
G1 X101.935 Y152.874 E13.58731
G1 X101.539 Y153.213 E13.60465
G1 X101.097 Y153.488 E13.62196
G1 X100.839 Y153.608 E13.63143
G1 X100.767 Y153.638 E13.63402
G1 X100.272 Y153.801 E13.65135
G1 X99.758 Y153.887 E13.66869
G1 X99.459 Y153.9 E13.67864
G1 X69.617 Y153.9 E14.67119
G1 X69.097 Y153.86 E14.68854
G1 X68.59 Y153.741 E14.70586
G1 X68.107 Y153.546 E14.72318
G1 X67.659 Y153.28 E14.74051
G1 X67.213 Y152.904 E14.75991
G1 X67.096 Y152.787 E14.76542
G1 X66.757 Y152.391 E14.78275
G1 X66.482 Y151.949 E14.80007
G1 X66.278 Y151.469 E14.81742
G1 X66.15 Y150.964 E14.83474
G1 X66.1 Y150.383 E14.85414
G1 X66.1 Y149.617 E14.87962
G1 X66.14 Y149.097 E14.89696
G1 X66.259 Y148.59 E14.91428
G1 X66.454 Y148.107 E14.93161
G1 X66.72 Y147.659 E14.94894
G1 X67.096 Y147.213 E14.96834
G1 X67.213 Y147.096 E14.97384
G1 X67.609 Y146.757 E14.99118
G1 X68.051 Y146.482 E15.00849
G1 X68.531 Y146.278 E15.02584
G1 X69.036 Y146.15 E15.04317
G1 X69.617 Y146.1 E15.06256
G1 X76.14 Y146.1 E15.27952
G1 X76.259 Y145.59 E15.29694
G1 X76.454 Y145.107 E15.31426
G1 X76.72 Y144.659 E15.33159
G1 X77.096 Y144.213 E15.35099
G1 X77.213 Y144.096 E15.3565
G1 X77.609 Y143.757 E15.37384
G1 X78.051 Y143.482 E15.39115
G1 X78.531 Y143.278 E15.4085
G1 X79.036 Y143.15 E15.42582
G1 X79.617 Y143.1 E15.44522
G1 X89.383 Y143.1 E15.77004
G1 X89.903 Y143.14 E15.78738
G1 X90.41 Y143.259 E15.80471
G1 X90.893 Y143.454 E15.82203
G1 X91.341 Y143.72 E15.83936
G1 X91.787 Y144.096 E15.85876
G1 X91.904 Y144.213 E15.86426
G1 X92.243 Y144.609 E15.8816
G1 X92.518 Y145.051 E15.89892
G1 X92.722 Y145.531 E15.91626
G1 X92.85 Y146.036 E15.93359
G1 X92.856 Y146.1 E15.93573
G1 X98.093 Y146.1 E16.10991
G1 X146.1 Y98.093 E18.36801
G1 X146.1 Y92.86 E18.54206
G1 X145.59 Y92.741 E18.55948
G1 X145.107 Y92.546 E18.57681
G1 X144.659 Y92.28 E18.59414
G1 X144.213 Y91.904 E18.61354
G1 X144.096 Y91.787 E18.61904
G1 X143.757 Y91.391 E18.63638
G1 X143.482 Y90.949 E18.65369
G1 X143.278 Y90.469 E18.67104
G1 X143.15 Y89.964 E18.68837
G1 X143.1 Y89.383 E18.70776
G1 X143.1 Y79.617 E19.03258
G1 X143.14 Y79.097 E19.04993
G1 X143.259 Y78.59 E19.06725
G1 X143.454 Y78.107 E19.08457
G1 X143.72 Y77.659 E19.1019
G1 X144.096 Y77.213 E19.12131
G1 X144.213 Y77.096 E19.12681
G1 X144.609 Y76.757 E19.14415
G1 X145.051 Y76.482 E19.16146
G1 X145.531 Y76.278 E19.17881
G1 X146.036 Y76.15 E19.19614
G1 X146.1 Y76.144 E19.19827
G1 X146.1 Y69.617 E19.41536
G1 X146.14 Y69.097 E19.43271
G1 X146.259 Y68.59 E19.45003
G1 X146.454 Y68.107 E19.46735
G0 F6000 X146.853 Y68.205
G1 F1200 X147.118 Y67.793 E19.48365
G1 X147.379 Y67.496 E19.4968
G1 X147.496 Y67.379 E19.5023
G1 X147.869 Y67.062 E19.51858
G1 X148.289 Y66.81 E19.53487
G1 X148.744 Y66.63 E19.55115
G1 X149.222 Y66.526 E19.56742
G1 X149.617 Y66.5 E19.58058
G1 X150.383 Y66.5 E19.60606
G1 X150.871 Y66.54 E19.62235
G1 X151.346 Y66.659 E19.63863
G1 X151.795 Y66.853 E19.6549
G1 X152.207 Y67.118 E19.6712
G1 X152.504 Y67.379 E19.68435
G1 X152.621 Y67.496 E19.68985
G1 X152.938 Y67.869 E19.70613
G1 X153.19 Y68.289 E19.72242
G1 X153.37 Y68.744 E19.7387
G1 X153.474 Y69.222 E19.75497
G1 X153.5 Y69.617 E19.76813
G1 X153.5 Y99.459 E20.76068
G1 X153.46 Y99.947 E20.77697
G1 X153.269 Y100.613 E20.80001
G1 X153.239 Y100.685 E20.8026
G1 X153.015 Y101.12 E20.81888
G1 X152.591 Y101.652 E20.84151
G1 X101.652 Y152.591 E23.23752
G1 X101.279 Y152.908 E23.2538
G1 X100.685 Y153.239 E23.27642
G1 X100.613 Y153.269 E23.27901
G1 X100.147 Y153.42 E23.2953
G1 X99.459 Y153.5 E23.31834
G1 X69.617 Y153.5 E24.31089
G1 X69.129 Y153.46 E24.32718
G1 X68.654 Y153.341 E24.34346
G1 X68.205 Y153.147 E24.35973
G1 X67.793 Y152.882 E24.37602
G1 X67.496 Y152.621 E24.38917
G1 X67.379 Y152.504 E24.39468
G1 X67.062 Y152.131 E24.41096
G1 X66.81 Y151.711 E24.42725
G1 X66.63 Y151.256 E24.44352
G1 X66.526 Y150.778 E24.45979
G1 X66.5 Y150.383 E24.47296
G1 X66.5 Y149.617 E24.49844
G1 X66.54 Y149.129 E24.51472
G1 X66.659 Y148.654 E24.53101
G1 X66.853 Y148.205 E24.54728
G1 X67.118 Y147.793 E24.56357
G1 X67.379 Y147.496 E24.57672
G1 X67.496 Y147.379 E24.58223
G1 X67.869 Y147.062 E24.59851
G1 X68.289 Y146.81 E24.6148
G1 X68.744 Y146.63 E24.63107
G1 X69.222 Y146.526 E24.64734
G1 X69.617 Y146.5 E24.66051
G1 X76.51 Y146.5 E24.88977
G1 X76.54 Y146.129 E24.90215
G1 X76.659 Y145.654 E24.91844
G1 X76.853 Y145.205 E24.9347
G1 X77.118 Y144.793 E24.951
G1 X77.379 Y144.496 E24.96415
G1 X77.496 Y144.379 E24.96965
G1 X77.869 Y144.062 E24.98593
G1 X78.289 Y143.81 E25.00222
G1 X78.744 Y143.63 E25.0185
G1 X79.222 Y143.526 E25.03477
G1 X79.617 Y143.5 E25.04793
G1 X89.383 Y143.5 E25.37275
G1 X89.871 Y143.54 E25.38904
G1 X90.346 Y143.659 E25.40533
G1 X90.795 Y143.853 E25.42159
G1 X91.207 Y144.118 E25.43789
G1 X91.504 Y144.379 E25.45104
G1 X91.621 Y144.496 E25.45654
G1 X91.938 Y144.869 E25.47282
G1 X92.19 Y145.289 E25.48911
G1 X92.37 Y145.744 E25.50539
G1 X92.474 Y146.222 E25.52166
G1 X92.492 Y146.5 E25.53092
G1 X98.259 Y146.5 E25.72273
G1 X146.5 Y98.259 E27.99184
G1 X146.5 Y92.49 E28.18372
G1 X146.129 Y92.46 E28.1961
G1 X145.654 Y92.341 E28.21239
G1 X145.205 Y92.147 E28.22866
G1 X144.793 Y91.882 E28.24495
G1 X144.496 Y91.621 E28.2581
G1 X144.379 Y91.504 E28.2636
G1 X144.062 Y91.131 E28.27988
G1 X143.81 Y90.711 E28.29617
G1 X143.63 Y90.256 E28.31245
G1 X143.526 Y89.778 E28.32872
G1 X143.5 Y89.383 E28.34189
G1 X143.5 Y79.617 E28.6667
G1 X143.54 Y79.129 E28.68299
G1 X143.659 Y78.654 E28.69928
G1 X143.853 Y78.205 E28.71554
G1 X144.118 Y77.793 E28.73184
G1 X144.379 Y77.496 E28.74499
G1 X144.496 Y77.379 E28.75049
G1 X144.869 Y77.062 E28.76677
G1 X145.289 Y76.81 E28.78306
G1 X145.744 Y76.63 E28.79934
G1 X146.222 Y76.526 E28.81561
G1 X146.5 Y76.508 E28.82487
G1 X146.5 Y69.617 E29.05407
G1 X146.54 Y69.129 E29.07035
G1 X146.659 Y68.654 E29.08664
G1 X146.853 Y68.205 E29.10291
G0 F6000 X147.058 Y68.723
G1 F1200 X147.252 Y68.311 E29.11806
G1 X147.662 Y67.779 E29.1404
G1 X147.779 Y67.662 E29.1459
G1 X148.128 Y67.369 E29.16105
G1 X148.523 Y67.142 E29.17621
G1 X148.951 Y66.987 E29.19135
G1 X149.617 Y66.9 E29.21369
G1 X150.383 Y66.9 E29.23916
G1 X150.837 Y66.94 E29.25432
G1 X151.277 Y67.058 E29.26947
G1 X151.689 Y67.252 E29.28462
G1 X152.221 Y67.662 E29.30696
G1 X152.338 Y67.779 E29.31246
G1 X152.631 Y68.128 E29.32762
G1 X152.858 Y68.523 E29.34277
G1 X153.013 Y68.951 E29.35791
G1 X153.1 Y69.617 E29.38025
G1 X153.1 Y99.459 E30.3728
G1 X153.06 Y99.913 E30.38796
G1 X152.9 Y100.459 E30.40688
G1 X152.87 Y100.531 E30.40948
G1 X152.659 Y100.935 E30.42464
G1 X152.308 Y101.369 E30.4432
G1 X101.369 Y152.308 E32.83922
G1 X101.02 Y152.601 E32.85437
G1 X100.531 Y152.87 E32.87293
G1 X100.459 Y152.9 E32.87553
G1 X100.025 Y153.038 E32.89068
G1 X99.459 Y153.1 E32.90961
G1 X69.617 Y153.1 E33.90216
G1 X69.163 Y153.06 E33.91732
G1 X68.723 Y152.942 E33.93247
G1 X68.311 Y152.748 E33.94762
G1 X67.779 Y152.338 E33.96996
G1 X67.662 Y152.221 E33.97546
G1 X67.369 Y151.872 E33.99062
G1 X67.142 Y151.477 E34.00577
G1 X66.987 Y151.049 E34.02091
G1 X66.9 Y150.383 E34.04325
G1 X66.9 Y149.617 E34.06873
G1 X66.94 Y149.163 E34.08389
G1 X67.058 Y148.723 E34.09904
G1 X67.252 Y148.311 E34.11418
G1 X67.662 Y147.779 E34.13652
G1 X67.779 Y147.662 E34.14203
G1 X68.128 Y147.369 E34.15718
G1 X68.523 Y147.142 E34.17234
G1 X68.951 Y146.987 E34.18748
G1 X69.617 Y146.9 E34.20982
G1 X76.9 Y146.9 E34.45205
G1 X76.9 Y146.617 E34.46146
G1 X76.94 Y146.163 E34.47662
G1 X77.058 Y145.723 E34.49177
G1 X77.252 Y145.311 E34.50692
G1 X77.662 Y144.779 E34.52926
G1 X77.779 Y144.662 E34.53476
G1 X78.128 Y144.369 E34.54992
G1 X78.523 Y144.142 E34.56507
G1 X78.951 Y143.987 E34.58021
G1 X79.617 Y143.9 E34.60255
G1 X89.383 Y143.9 E34.92737
G1 X89.837 Y143.94 E34.94253
G1 X90.277 Y144.058 E34.95768
G1 X90.689 Y144.252 E34.97282
G1 X91.221 Y144.662 E34.99516
G1 X91.338 Y144.779 E35.00067
G1 X91.631 Y145.128 E35.01582
G1 X91.858 Y145.523 E35.03098
G1 X92.013 Y145.951 E35.04612
G1 X92.1 Y146.617 E35.06846
G1 X92.1 Y146.9 E35.07787
G1 X98.425 Y146.9 E35.28824
G1 X146.9 Y98.425 E37.56835
G1 X146.9 Y92.1 E37.77872
G1 X146.617 Y92.1 E37.78814
G1 X146.163 Y92.06 E37.8033
G1 X145.723 Y91.942 E37.81845
G1 X145.311 Y91.748 E37.83359
G1 X144.779 Y91.338 E37.85593
G1 X144.662 Y91.221 E37.86144
G1 X144.369 Y90.872 E37.87659
G1 X144.142 Y90.477 E37.89174
G1 X143.987 Y90.049 E37.90689
G1 X143.9 Y89.383 E37.92922
G1 X143.9 Y79.617 E38.25404
G1 X143.94 Y79.163 E38.2692
G1 X144.058 Y78.723 E38.28435
G1 X144.252 Y78.311 E38.2995
G1 X144.662 Y77.779 E38.32184
G1 X144.779 Y77.662 E38.32734
G1 X145.128 Y77.369 E38.3425
G1 X145.523 Y77.142 E38.35765
G1 X145.951 Y76.987 E38.37279
G1 X146.617 Y76.9 E38.39513
G1 X146.9 Y76.9 E38.40454
G1 X146.9 Y69.617 E38.64678
G1 X146.94 Y69.163 E38.66194
G1 X147.058 Y68.723 E38.67709
G0 F6000 X147.458 Y68.798
G1 F1200 X147.651 Y68.426 E38.69103
G1 X147.944 Y68.061 E38.70659
G1 X148.061 Y67.944 E38.7121
G1 X148.385 Y67.678 E38.72604
G1 X148.752 Y67.477 E38.73996
G1 X149.152 Y67.35 E38.75392
G1 X149.617 Y67.3 E38.76947
G1 X150.383 Y67.3 E38.79495
G1 X150.8 Y67.34 E38.80888
G1 X151.202 Y67.458 E38.82282
G1 X151.574 Y67.651 E38.83675
G1 X151.939 Y67.944 E38.85232
G1 X152.056 Y68.061 E38.85783
G1 X152.322 Y68.385 E38.87177
G1 X152.523 Y68.752 E38.88569
G1 X152.65 Y69.152 E38.89964
G1 X152.7 Y69.617 E38.9152
G1 X152.7 Y99.459 E39.90775
G1 X152.66 Y99.876 E39.92168
G1 X152.531 Y100.305 E39.93658
G1 X152.501 Y100.377 E39.93918
G1 X152.303 Y100.747 E39.95313
G1 X152.026 Y101.087 E39.96772
G1 X101.087 Y152.026 E42.36373
G1 X100.763 Y152.292 E42.37768
G1 X100.377 Y152.501 E42.39228
G1 X100.305 Y152.531 E42.39487
G1 X99.905 Y152.654 E42.40879
G1 X99.459 Y152.7 E42.4237
G1 X69.617 Y152.7 E43.41625
G1 X69.2 Y152.66 E43.43018
G1 X68.798 Y152.542 E43.44412
G1 X68.426 Y152.349 E43.45806
G1 X68.061 Y152.056 E43.47362
G1 X67.944 Y151.939 E43.47913
G1 X67.678 Y151.615 E43.49307
G1 X67.477 Y151.248 E43.50699
G1 X67.35 Y150.848 E43.52095
G1 X67.3 Y150.383 E43.5365
G1 X67.3 Y149.617 E43.56198
G1 X67.34 Y149.2 E43.57591
G1 X67.458 Y148.798 E43.58985
G1 X67.651 Y148.426 E43.60379
G1 X67.944 Y148.061 E43.61935
G1 X68.061 Y147.944 E43.62486
G1 X68.385 Y147.678 E43.6388
G1 X68.752 Y147.477 E43.65272
G1 X69.152 Y147.35 E43.66667
G1 X69.617 Y147.3 E43.68223
G1 X77.3 Y147.3 E43.93777
G1 X77.3 Y146.617 E43.96048
G1 X77.34 Y146.2 E43.97442
G1 X77.458 Y145.798 E43.98835
G1 X77.651 Y145.426 E44.00229
G1 X77.944 Y145.061 E44.01786
G1 X78.061 Y144.944 E44.02336
G1 X78.385 Y144.678 E44.0373
G1 X78.752 Y144.477 E44.05122
G1 X79.152 Y144.35 E44.06518
G1 X79.617 Y144.3 E44.08074
G1 X89.383 Y144.3 E44.40555
G1 X89.8 Y144.34 E44.41949
G1 X90.202 Y144.458 E44.43342
G1 X90.574 Y144.651 E44.44736
G1 X90.939 Y144.944 E44.46293
G1 X91.056 Y145.061 E44.46843
G1 X91.322 Y145.385 E44.48237
G1 X91.523 Y145.752 E44.49629
G1 X91.65 Y146.152 E44.51025
G1 X91.7 Y146.617 E44.52581
G1 X91.7 Y147.3 E44.54852
G1 X98.589 Y147.3 E44.77765
G1 X147.3 Y98.589 E47.06887
G1 X147.3 Y91.7 E47.298
G1 X146.617 Y91.7 E47.32071
G1 X146.2 Y91.66 E47.33465
G1 X145.798 Y91.542 E47.34858
G1 X145.426 Y91.349 E47.36252
G1 X145.061 Y91.056 E47.37809
G1 X144.944 Y90.939 E47.38359
G1 X144.678 Y90.615 E47.39753
G1 X144.477 Y90.248 E47.41145
G1 X144.35 Y89.848 E47.42541
G1 X144.3 Y89.383 E47.44096
G1 X144.3 Y79.617 E47.76578
G1 X144.34 Y79.2 E47.77972
