;FLAVOR:Marlin
;TIME:16286
;Filament used: 10.5598m
;Layer height: 0.2
;MINX:66.2
;MINY:61.2
;MINZ:0.2
;MAXX:153.8
;MAXY:158.8
;MAXZ:80
;Generated with Cura_SteamEngine 4.10.0
M140 S60
M105
M190 S60
M104 S200
M105
M109 S200
M82 ;absolute extrusion mode
; Ender 3 Custom Start G-code
G92 E0 ; Reset Extruder
G28 ; Home all axes
G1 Z2.0 F3000 ; Move Z Axis up little to prevent scratching of Heat Bed
G1 X0.1 Y20 Z0.3 F5000.0 ; Move to start position
G1 X0.1 Y200.0 Z0.3 F1500.0 E15 ; Draw the first line
G1 X0.4 Y200.0 Z0.3 F5000.0 ; Move to side a little
G1 X0.4 Y20 Z0.3 F1500.0 E30 ; Draw the second line
G92 E0 ; Reset Extruder
G1 Z2.0 F3000 ; Move Z Axis up little to prevent scratching of Heat Bed
G1 X5 Y20 Z0.3 F5000.0 ; Move over to prevent blob squish
G92 E0
G92 E0
G1 F1500 E-6.5
;LAYER_COUNT:400
;LAYER:0
M107
G0 F6000 X67.313 Y62.43 Z0.2
;TYPE:SKIRT
G1 F1500 E0
G1 F1200 X67.43 Y62.313 E0.0055
G1 X67.847 Y61.953 E0.02383
G1 X68.311 Y61.656 E0.04215
G1 X68.814 Y61.43 E0.06049
G1 X69.344 Y61.279 E0.07882
G1 X70.117 Y61.2 E0.10466
G1 X149.883 Y61.2 E2.75769
G1 X150.433 Y61.24 E2.77603
G1 X150.971 Y61.359 E2.79436
G1 X151.486 Y61.555 E2.81269
G1 X151.967 Y61.823 E2.831
G1 X152.57 Y62.313 E2.85684
G1 X152.687 Y62.43 E2.86235
G1 X153.047 Y62.847 E2.88067
G1 X153.344 Y63.311 E2.89899
G1 X153.57 Y63.814 E2.91733
G1 X153.721 Y64.344 E2.93566
G1 X153.8 Y65.117 E2.96151
G1 X153.8 Y154.883 E5.94714
G1 X153.76 Y155.433 E5.96548
G1 X153.641 Y155.971 E5.9838
G1 X153.445 Y156.486 E6.00213
G1 X153.177 Y156.967 E6.02045
G1 X152.687 Y157.57 E6.04629
G1 X152.57 Y157.687 E6.05179
G1 X152.153 Y158.047 E6.07012
G1 X151.689 Y158.344 E6.08844
G1 X151.186 Y158.57 E6.10678
G1 X150.656 Y158.721 E6.12511
G1 X149.883 Y158.8 E6.15095
G1 X70.117 Y158.8 E8.80398
G1 X69.567 Y158.76 E8.82232
G1 X69.029 Y158.641 E8.84065
G1 X68.514 Y158.445 E8.85898
G1 X68.033 Y158.177 E8.87729
G1 X67.43 Y157.687 E8.90313
G1 X67.313 Y157.57 E8.90864
G1 X66.953 Y157.153 E8.92696
G1 X66.656 Y156.689 E8.94528
G1 X66.43 Y156.186 E8.96362
G1 X66.279 Y155.656 E8.98195
G1 X66.2 Y154.883 E9.0078
G1 X66.2 Y65.117 E11.99343
G1 X66.24 Y64.567 E12.01177
G1 X66.359 Y64.029 E12.03009
G1 X66.555 Y63.514 E12.04842
G1 X66.823 Y63.033 E12.06674
G1 X67.313 Y62.43 E12.09258
G0 F6000 X67.596 Y62.713
G1 F1200 X67.713 Y62.596 E12.09808
G1 X68.109 Y62.257 E12.11542
G1 X68.551 Y61.982 E12.13273
G1 X69.031 Y61.778 E12.15008
G1 X69.536 Y61.65 E12.16741
G1 X70.117 Y61.6 E12.1868
G1 X149.883 Y61.6 E14.83983
G1 X150.403 Y61.64 E14.85718
G1 X150.91 Y61.759 E14.8745
G1 X151.393 Y61.954 E14.89182
G1 X151.841 Y62.22 E14.90915
G1 X152.287 Y62.596 E14.92855
G1 X152.404 Y62.713 E14.93406
G1 X152.743 Y63.109 E14.9514
G1 X153.018 Y63.551 E14.96871
G1 X153.222 Y64.031 E14.98606
G1 X153.35 Y64.536 E15.00338
G1 X153.4 Y65.117 E15.02278
G1 X153.4 Y154.883 E18.00841
G1 X153.36 Y155.403 E18.02576
G1 X153.241 Y155.91 E18.04308
G1 X153.046 Y156.393 E18.0604
G1 X152.78 Y156.841 E18.07773
G1 X152.404 Y157.287 E18.09713
G1 X152.287 Y157.404 E18.10264
G1 X151.891 Y157.743 E18.11997
G1 X151.449 Y158.018 E18.13729
G1 X150.969 Y158.222 E18.15463
G1 X150.464 Y158.35 E18.17196
G1 X149.883 Y158.4 E18.19136
G1 X70.117 Y158.4 E20.84439
G1 X69.597 Y158.36 E20.86173
G1 X69.09 Y158.241 E20.87905
G1 X68.607 Y158.046 E20.89638
G1 X68.159 Y157.78 E20.91371
G1 X67.713 Y157.404 E20.93311
G1 X67.596 Y157.287 E20.93861
G1 X67.257 Y156.891 E20.95595
G1 X66.982 Y156.449 E20.97326
G1 X66.778 Y155.969 E20.99061
G1 X66.65 Y155.464 E21.00794
G1 X66.6 Y154.883 E21.02733
G1 X66.6 Y65.117 E24.01296
G1 X66.64 Y64.597 E24.03031
G1 X66.759 Y64.09 E24.04763
G1 X66.954 Y63.607 E24.06496
G1 X67.22 Y63.159 E24.08228
G1 X67.596 Y62.713 E24.10169
G0 F6000 X67.879 Y62.996
G1 F1200 X67.996 Y62.879 E24.10719
G1 X68.369 Y62.562 E24.12347
G1 X68.789 Y62.31 E24.13976
G1 X69.244 Y62.13 E24.15604
G1 X69.722 Y62.026 E24.17231
G1 X70.117 Y62 E24.18547
G1 X149.883 Y62 E26.8385
G1 X150.371 Y62.04 E26.85479
G1 X150.846 Y62.159 E26.87107
G1 X151.295 Y62.353 E26.88734
G1 X151.707 Y62.618 E26.90363
G1 X152.004 Y62.879 E26.91678
G1 X152.121 Y62.996 E26.92229
G1 X152.438 Y63.369 E26.93857
G1 X152.69 Y63.789 E26.95486
G1 X152.87 Y64.244 E26.97113
G1 X152.974 Y64.722 E26.9874
G1 X153 Y65.117 E27.00057
G1 X153 Y154.883 E29.9862
G1 X152.96 Y155.371 E30.00249
G1 X152.841 Y155.846 E30.01877
G1 X152.647 Y156.295 E30.03504
G1 X152.382 Y156.707 E30.05133
G1 X152.121 Y157.004 E30.06448
G1 X152.004 Y157.121 E30.06999
G1 X151.631 Y157.438 E30.08627
G1 X151.211 Y157.69 E30.10256
G1 X150.756 Y157.87 E30.11883
G1 X150.278 Y157.974 E30.1351
G1 X149.883 Y158 E30.14827
G1 X70.117 Y158 E32.8013
G1 X69.629 Y157.96 E32.81758
G1 X69.154 Y157.841 E32.83387
G1 X68.705 Y157.647 E32.85014
G1 X68.293 Y157.382 E32.86643
G1 X67.996 Y157.121 E32.87958
G1 X67.879 Y157.004 E32.88509
G1 X67.562 Y156.631 E32.90137
G1 X67.31 Y156.211 E32.91766
G1 X67.13 Y155.756 E32.93393
G1 X67.026 Y155.278 E32.9502
G1 X67 Y154.883 E32.96337
G1 X67 Y65.117 E35.949
G1 X67.04 Y64.629 E35.96528
G1 X67.159 Y64.154 E35.98157
G1 X67.353 Y63.705 E35.99784
G1 X67.618 Y63.293 E36.01413
G1 X67.879 Y62.996 E36.02728
G0 F6000 X68.162 Y63.279
G1 F1200 X68.279 Y63.162 E36.03279
G1 X68.628 Y62.869 E36.04794
G1 X69.023 Y62.642 E36.06309
G1 X69.451 Y62.487 E36.07823
G1 X70.117 Y62.4 E36.10057
G1 X149.883 Y62.4 E38.7536
G1 X150.337 Y62.44 E38.76876
G1 X150.777 Y62.558 E38.78391
G1 X151.189 Y62.752 E38.79906
G1 X151.721 Y63.162 E38.8214
G1 X151.838 Y63.279 E38.8269
G1 X152.131 Y63.628 E38.84206
G1 X152.358 Y64.023 E38.85721
G1 X152.513 Y64.451 E38.87235
G1 X152.6 Y65.117 E38.89469
G1 X152.6 Y154.883 E41.88032
G1 X152.56 Y155.337 E41.89548
G1 X152.442 Y155.777 E41.91063
G1 X152.248 Y156.189 E41.92578
G1 X151.838 Y156.721 E41.94811
G1 X151.721 Y156.838 E41.95362
G1 X151.372 Y157.131 E41.96877
G1 X150.977 Y157.358 E41.98393
G1 X150.549 Y157.513 E41.99907
G1 X149.883 Y157.6 E42.02141
G1 X70.117 Y157.6 E44.67443
G1 X69.663 Y157.56 E44.68959
G1 X69.223 Y157.442 E44.70474
G1 X68.811 Y157.248 E44.71989
G1 X68.279 Y156.838 E44.74223
G1 X68.162 Y156.721 E44.74773
G1 X67.869 Y156.372 E44.76289
G1 X67.642 Y155.977 E44.77804
G1 X67.487 Y155.549 E44.79318
G1 X67.4 Y154.883 E44.81552
G1 X67.4 Y65.117 E47.80115
G1 X67.44 Y64.663 E47.81631
G1 X67.558 Y64.223 E47.83146
G1 X67.752 Y63.811 E47.84661
G1 X68.162 Y63.279 E47.86895
G0 F6000 X68.444 Y63.561
G1 F1200 X68.561 Y63.444 E47.87445
G1 X68.885 Y63.178 E47.88839
G1 X69.252 Y62.977 E47.90231
G1 X69.652 Y62.85 E47.91627
G1 X70.117 Y62.8 E47.93182
G1 X149.883 Y62.8 E50.58485
G1 X150.3 Y62.84 E50.59879
G1 X150.702 Y62.958 E50.61272
G1 X151.074 Y63.151 E50.62666
G1 X151.439 Y63.444 E50.64223
G1 X151.556 Y63.561 E50.64773
G1 X151.822 Y63.885 E50.66167
G1 X152.023 Y64.252 E50.67559
G1 X152.15 Y64.652 E50.68955
G1 X152.2 Y65.117 E50.7051
G1 X152.2 Y154.883 E53.69073
G1 X152.16 Y155.3 E53.70467
G1 X152.042 Y155.702 E53.7186
G1 X151.849 Y156.074 E53.73254
G1 X151.556 Y156.439 E53.74811
G1 X151.439 Y156.556 E53.75361
G1 X151.115 Y156.822 E53.76755
G1 X150.748 Y157.023 E53.78147
G1 X150.348 Y157.15 E53.79543
G1 X149.883 Y157.2 E53.81098
G1 X70.117 Y157.2 E56.46401
G1 X69.7 Y157.16 E56.47794
G1 X69.298 Y157.042 E56.49188
G1 X68.926 Y156.849 E56.50582
G1 X68.561 Y156.556 E56.52139
G1 X68.444 Y156.439 E56.52689
G1 X68.178 Y156.115 E56.54083
G1 X67.977 Y155.748 E56.55475
G1 X67.85 Y155.348 E56.56871
G1 X67.8 Y154.883 E56.58426
G1 X67.8 Y65.117 E59.56989
G1 X67.84 Y64.7 E59.58383
G1 X67.958 Y64.298 E59.59776
G1 X68.151 Y63.926 E59.6117
G1 X68.444 Y63.561 E59.62727
G0 F6000 X68.727 Y63.844
G1 F1200 X68.844 Y63.727 E59.63277
G1 X69.139 Y63.489 E59.64538
G1 X69.477 Y63.318 E59.65798
G1 X69.843 Y63.221 E59.67057
G1 X70.117 Y63.2 E59.67971
G1 X149.883 Y63.2 E62.33274
G1 X150.26 Y63.24 E62.34535
G1 X150.62 Y63.358 E62.35795
G1 X150.947 Y63.548 E62.37053
G1 X151.156 Y63.727 E62.37968
G1 X151.273 Y63.844 E62.38518
G1 X151.511 Y64.139 E62.39779
G1 X151.682 Y64.477 E62.41039
G1 X151.779 Y64.843 E62.42298
G1 X151.8 Y65.117 E62.43212
G1 X151.8 Y154.883 E65.41775
G1 X151.76 Y155.26 E65.43036
G1 X151.642 Y155.62 E65.44296
G1 X151.452 Y155.947 E65.45554
G1 X151.273 Y156.156 E65.46469
G1 X151.156 Y156.273 E65.47019
G1 X150.861 Y156.511 E65.4828
G1 X150.523 Y156.682 E65.4954
G1 X150.157 Y156.779 E65.50799
G1 X149.883 Y156.8 E65.51713
G1 X70.117 Y156.8 E68.17016
G1 X69.74 Y156.76 E68.18277
G1 X69.38 Y156.642 E68.19537
G1 X69.053 Y156.452 E68.20795
G1 X68.844 Y156.273 E68.2171
G1 X68.727 Y156.156 E68.22261
G1 X68.489 Y155.861 E68.23521
G1 X68.318 Y155.523 E68.24781
G1 X68.221 Y155.157 E68.2604
G1 X68.2 Y154.883 E68.26954
G1 X68.2 Y65.117 E71.25517
G1 X68.24 Y64.74 E71.26778
G1 X68.358 Y64.38 E71.28038
G1 X68.548 Y64.053 E71.29296
G1 X68.727 Y63.844 E71.30211
G0 F6000 X69.01 Y64.127
G1 F1200 X69.127 Y64.01 E71.30762
G1 X69.39 Y63.804 E71.31873
G1 X69.694 Y63.665 E71.32985
G1 X70.117 Y63.6 E71.34408
G1 X149.883 Y63.6 E73.99711
G1 X150.215 Y63.64 E74.00823
G1 X150.527 Y63.757 E74.01931
G1 X150.873 Y64.01 E74.03357
G1 X150.99 Y64.127 E74.03907
G1 X151.196 Y64.39 E74.05019
G1 X151.335 Y64.694 E74.0613
G1 X151.4 Y65.117 E74.07554
G1 X151.4 Y154.883 E77.06117
G1 X151.36 Y155.215 E77.07229
G1 X151.243 Y155.527 E77.08337
G1 X150.99 Y155.873 E77.09763
G1 X150.873 Y155.99 E77.10313
G1 X150.61 Y156.196 E77.11424
G1 X150.306 Y156.335 E77.12536
G1 X149.883 Y156.4 E77.13959
G1 X70.117 Y156.4 E79.79262
G1 X69.785 Y156.36 E79.80374
G1 X69.473 Y156.243 E79.81483
G1 X69.127 Y155.99 E79.82908
G1 X69.01 Y155.873 E79.83459
G1 X68.804 Y155.61 E79.8457
G1 X68.665 Y155.306 E79.85682
G1 X68.6 Y154.883 E79.87105
G1 X68.6 Y65.117 E82.85668
G1 X68.64 Y64.785 E82.8678
G1 X68.757 Y64.473 E82.87888
G1 X69.01 Y64.127 E82.89314
G0 F6000 X69.41 Y64.293
G1 F1200 X69.636 Y64.124 E82.90253
G1 X69.9 Y64.024 E82.91192
G1 X70.117 Y64 E82.91918
G1 X149.883 Y64 E85.57221
G1 X150.162 Y64.04 E85.58158
G1 X150.419 Y64.156 E85.59096
G1 X150.707 Y64.41 E85.60373
G1 X150.876 Y64.636 E85.61312
G1 X150.976 Y64.9 E85.62251
G1 X151 Y65.117 E85.62977
G1 X151 Y154.883 E88.6154
G1 X150.96 Y155.162 E88.62477
G1 X150.844 Y155.419 E88.63415
G1 X150.59 Y155.707 E88.64692
G1 X150.364 Y155.876 E88.65631
G1 X150.1 Y155.976 E88.6657
G1 X149.883 Y156 E88.67296
G1 X70.117 Y156 E91.32599
G1 X69.838 Y155.96 E91.33536
G1 X69.581 Y155.844 E91.34474
G1 X69.293 Y155.59 E91.35751
G1 X69.124 Y155.364 E91.3669
G1 X69.024 Y155.1 E91.37629
G1 X69 Y154.883 E91.38355
G1 X69 Y65.117 E94.36918
G1 X69.04 Y64.838 E94.37855
G1 X69.156 Y64.581 E94.38793
G1 X69.41 Y64.293 E94.4007
G0 F6000 X69.693 Y64.576
G1 F1200 X69.872 Y64.452 E94.40795
G1 X70.117 Y64.4 E94.41628
G1 X149.883 Y64.4 E97.0693
G1 X150.098 Y64.44 E97.07658
G1 X150.424 Y64.693 E97.0903
G1 X150.548 Y64.872 E97.09754
G1 X150.6 Y65.117 E97.10587
G1 X150.6 Y154.883 E100.0915
G1 X150.56 Y155.098 E100.09878
G1 X150.307 Y155.424 E100.1125
G1 X150.128 Y155.548 E100.11975
G1 X149.883 Y155.6 E100.12808
G1 X70.117 Y155.6 E102.7811
G1 X69.902 Y155.56 E102.78838
G1 X69.576 Y155.307 E102.8021
G1 X69.452 Y155.128 E102.80934
G1 X69.4 Y154.883 E102.81767
G1 X69.4 Y65.117 E105.8033
G1 X69.44 Y64.902 E105.81058
G1 X69.693 Y64.576 E105.8243
G0 F6000 X69.859 Y64.976
G1 F1200 X69.976 Y64.859 E105.82981
G1 X70.117 Y64.8 E105.83489
G1 X149.883 Y64.8 E108.48792
G1 X150.024 Y64.859 E108.493
G1 X150.141 Y64.976 E108.4985
G1 X150.2 Y65.117 E108.50359
G1 X150.2 Y154.883 E111.48922
G1 X150.141 Y155.024 E111.4943
G1 X150.024 Y155.141 E111.4998
G1 X149.883 Y155.2 E111.50489
G1 X70.117 Y155.2 E114.15792
G1 X69.976 Y155.141 E114.163
G1 X69.859 Y155.024 E114.1685
G1 X69.8 Y154.883 E114.17359
G1 X69.8 Y65.117 E117.15922
G1 X69.859 Y64.976 E117.1643
G1 F1500 E110.6643
;MESH:cajaEsquina.stl
G0 F6000 X70.81 Y65.81
G0 X149.218 Y65.782
G0 X149.5 Y154.53
G0 X149.8 Y154.8
;TYPE:WALL-OUTER
G1 F1500 E117.1643
G1 F1200 X70.2 Y154.8 E119.81181
G1 X70.2 Y65.2 E122.79191
G1 X149.8 Y65.2 E125.43942
G1 X149.8 Y154.8 E128.41953
G0 F6000 X149.4 Y154.4
;TYPE:WALL-INNER
G1 F1200 X70.6 Y154.4 E131.04043
G1 X70.6 Y65.6 E133.99393
G1 X149.4 Y65.6 E136.61483
G1 X149.4 Y154.4 E139.56833
G0 F6000 X149.01 Y154.01
;TYPE:SKIN
G1 F1200 X70.99 Y154.01 E142.16328
G1 X70.99 Y65.99 E145.09084
G1 X149.01 Y65.99 E147.6858
G1 X149.01 Y154.01 E150.61335
G1 F1500 E144.11335
G0 F6000 X149.29 Y154.01
G0 X71.259 Y154.29
G0 X71.259 Y153.849
G1 F1500 E150.61335
G1 F1200 X71.149 Y153.739 E150.61853
G0 F6000 X71.149 Y153.174
G1 F1200 X71.825 Y153.849 E150.6503
G0 F6000 X72.39 Y153.849
G1 F1200 X71.149 Y152.608 E150.70867
G0 F6000 X71.149 Y152.042
G1 F1200 X72.956 Y153.849 E150.79367
G0 F6000 X73.522 Y153.849
G1 F1200 X71.149 Y151.477 E150.90526
G0 F6000 X71.149 Y150.911
G1 F1200 X74.087 Y153.849 E151.04346
G0 F6000 X74.653 Y153.849
G1 F1200 X71.149 Y150.345 E151.20828
G0 F6000 X71.149 Y149.78
G1 F1200 X75.219 Y153.849 E151.39969
G0 F6000 X75.784 Y153.849
G1 F1200 X71.149 Y149.214 E151.61771
G0 F6000 X71.149 Y148.648
G1 F1200 X76.35 Y153.849 E151.86235
G0 F6000 X76.916 Y153.849
G1 F1200 X71.149 Y148.083 E152.13359
G0 F6000 X71.149 Y147.517
G1 F1200 X77.481 Y153.849 E152.43142
G0 F6000 X78.047 Y153.849
G1 F1200 X71.149 Y146.951 E152.75588
G0 F6000 X71.149 Y146.385
G1 F1200 X78.613 Y153.849 E153.10697
G0 F6000 X79.178 Y153.849
G1 F1200 X71.149 Y145.82 E153.48463
G0 F6000 X71.149 Y145.254
G1 F1200 X79.744 Y153.849 E153.88891
G0 F6000 X80.31 Y153.849
G1 F1200 X71.149 Y144.688 E154.31982
G0 F6000 X71.149 Y144.123
G1 F1200 X80.876 Y153.849 E154.77732
G0 F6000 X81.441 Y153.849
G1 F1200 X71.149 Y143.557 E155.26142
G0 F6000 X71.149 Y142.991
G1 F1200 X82.007 Y153.849 E155.77215
G0 F6000 X82.573 Y153.849
G1 F1200 X71.149 Y142.426 E156.30948
G0 F6000 X71.149 Y141.86
G1 F1200 X83.138 Y153.849 E156.8734
G0 F6000 X83.704 Y153.849
G1 F1200 X71.149 Y141.294 E157.46395
G0 F6000 X71.149 Y140.729
G1 F1200 X84.27 Y153.849 E158.0811
G0 F6000 X84.835 Y153.849
G1 F1200 X71.149 Y140.163 E158.72485
G0 F6000 X71.149 Y139.597
G1 F1200 X85.401 Y153.849 E159.39522
G0 F6000 X85.967 Y153.849
G1 F1200 X71.149 Y139.032 E160.09219
G0 F6000 X71.149 Y138.466
G1 F1200 X86.532 Y153.849 E160.81576
G0 F6000 X87.098 Y153.849
G1 F1200 X71.149 Y137.9 E161.56595
G0 F6000 X71.149 Y137.334
G1 F1200 X87.664 Y153.849 E162.34276
G0 F6000 X88.229 Y153.849
G1 F1200 X71.149 Y136.769 E163.14616
G0 F6000 X71.149 Y136.203
G1 F1200 X88.795 Y153.849 E163.97617
G0 F6000 X89.361 Y153.849
G1 F1200 X71.149 Y135.637 E164.83281
G0 F6000 X71.149 Y135.072
G1 F1200 X89.927 Y153.849 E165.71604
G0 F6000 X90.492 Y153.849
G1 F1200 X71.149 Y134.506 E166.62588
G0 F6000 X71.149 Y133.94
G1 F1200 X91.058 Y153.849 E167.56234
G0 F6000 X91.624 Y153.849
G1 F1200 X71.149 Y133.375 E168.52539
G0 F6000 X71.149 Y132.809
G1 F1200 X92.189 Y153.849 E169.51505
G0 F6000 X92.755 Y153.849
G1 F1200 X71.149 Y132.243 E170.53133
G0 F6000 X71.149 Y131.678
G1 F1200 X93.321 Y153.849 E171.57421
G0 F6000 X93.886 Y153.849
G1 F1200 X71.149 Y131.112 E172.64369
G0 F6000 X71.149 Y130.546
G1 F1200 X94.452 Y153.849 E173.73979
G0 F6000 X95.018 Y153.849
G1 F1200 X71.149 Y129.981 E174.86249
G0 F6000 X71.149 Y129.415
G1 F1200 X95.583 Y153.849 E176.01179
G0 F6000 X96.149 Y153.849
G1 F1200 X71.149 Y128.849 E177.18772
G0 F6000 X71.149 Y128.284
G1 F1200 X96.715 Y153.849 E178.39024
G0 F6000 X97.28 Y153.849
G1 F1200 X71.149 Y127.718 E179.61936
G0 F6000 X71.149 Y127.152
G1 F1200 X97.846 Y153.849 E180.87511
G0 F6000 X98.412 Y153.849
G1 F1200 X71.149 Y126.586 E182.15747
G0 F6000 X71.149 Y126.021
G1 F1200 X98.977 Y153.849 E183.46642
G0 F6000 X99.543 Y153.849
G1 F1200 X71.149 Y125.455 E184.80198
G0 F6000 X71.149 Y124.889
G1 F1200 X100.109 Y153.849 E186.16417
G0 F6000 X100.675 Y153.849
G1 F1200 X71.149 Y124.324 E187.55296
G0 F6000 X71.149 Y123.758
G1 F1200 X101.24 Y153.849 E188.96835
G0 F6000 X101.806 Y153.849
G1 F1200 X71.149 Y123.192 E190.41036
G0 F6000 X71.149 Y122.627
G1 F1200 X102.372 Y153.849 E191.87897
G0 F6000 X102.937 Y153.849
G1 F1200 X71.149 Y122.061 E193.37418
G0 F6000 X71.149 Y121.495
G1 F1200 X103.503 Y153.849 E194.89602
G0 F6000 X104.069 Y153.849
G1 F1200 X71.149 Y120.93 E196.44445
G0 F6000 X71.149 Y120.364
